!!!!SEGMENT: pl-sa--246-a-vii-6_siwinski-andrzej--ave-regina-caelorum.krn
!!!cenid: 17xx:312
!!!COM: Siwiński, Andrzej
!!!COM-rismID: pe41011487
!!!CDT: <1725->1725
!!!CNT:
!!!OTL: Ave Regina Caelorum
!!!PDT:
!!!AGN: Sacred
!!!SMS-siglum: PL-SA
!!!SMS-shelfmark: 246/A VII 6
!!!SMS-shelfwork: W
!!!NIFC-rismSourceID: 1001035397
!!!NIFC-rismChildID: 1001035397
!!!NIFC-islandoraID: none
!!!URL-pdf-islandora:
!!!URL-scan: https://bc.bdsandomierz.pl/dlibra/publication/1598/edition/1566/content @EN{Scan in the Sandomierz Diocese Digital Library} @PL{Skany w portalu Cyfrowa Biblioteka Diecezjalna w Sandomierzu}
!!!IIIF:
!!!ONB-nifc: brak partii viola da gamba; dodatkowe partie clno 1 i 2: uwzględnić w xml-u i edycji krytycznej, usunąć w transkrypcji dyplomatycznej, na odwrocie obu partii clno fragmenty innych utworów
!!!AIN: 3 empty 1 organ 2 soprn 2 violn
!!!key:
**kern	**fba	**kern	**kern	**kern	**text	**kern	**text	**kern	**text	**kern	**kern
*part8	*	*part7	*part6	*part5	*part5	*part4	*part4	*part3	*part3	*part2	*part1
*	*	*group3	*group3	*group2	*	*group2	*	*group2	*	*group1	*group1
*staff8	*	*staff7	*staff6	*staff5	*staff5	*staff4	*staff4	*staff3	*staff3	*staff2	*staff1
*Iorgan	*	*Ivioln	*Ivioln	*Iempty	*	*Isoprn	*	*Isoprn	*	*Iempty	*Iempty
*I"Organo	*	*I"Violino 2do	*I"Violino Primo	*I"Bas Solo	*	*I"Soprano II	*	*I"Soprano I	*	*I"Clarino 2do	*I"Clarino Primo
*I'Org.	*	*I'V-no II	*I'V-no I	*I'B. Solo	*	*I'S.II	*	*I'S.I	*	*I'Cl. II	*I'Cl.I
*clefF4	*	*clefG2	*clefG2	*clefF4	*	*clefC1	*	*clefC1	*	*clefG2	*clefG2
*	*	*	*	*	*	*	*	*	*	*ITrd1c2	*ITrd1c2
*k[b-e-]	*	*k[b-e-]	*k[b-e-]	*k[b-e-]	*	*k[b-e-]	*	*k[b-e-]	*	*k[b-e-]	*k[b-e-]
*B-:	*	*B-:	*B-:	*B-:	*	*B-:	*	*B-:	*	*B-:	*B-:
*M3/4	*	*M3/4	*M3/4	*M3/4	*	*M3/4	*	*M3/4	*	*M3/4	*M3/4
=1	=1	=1	=1	=1	=1	=1	=1	=1	=1	=1	=1
!	!	!	!	!	!	!LO:TX:a:t=P:problem=układ bemoli b- ee-	!	!LO:TX:a:t=P:problem=układ bemoli b- ee-	!	!	!LO:TX:a:t=P:problem=we wszystkich głosach wszystkie caudy z prawej strony
!	!	!LO:TX:a:t=adagio	!LO:TX:a:t=adagio	!	!	!LO:TX:a:t=P:problem=brak nazwy głosu na karcie	!	!LO:TX:a:t=P:problem=brak nazwy głosu na karcie	!	!LO:TX:a:t=b. Stróy	!LO:TX:a:t=b. Stróy
!LO:TX:b:t=ue Regina	!	!LO:TX:b:t=Aue Regina Coeloru(m)	!LO:TX:b:t=Aue Regina Coeloru(m)	!	!	!	!	!	!	!LO:TX:b:t=Aue Regina	!LO:TX:b:t=Aue Regina
!	!	!LO:N:vis=00	!LO:N:vis=00	!LO:N:vis=00	!	!	!	!	!	!LO:N:vis=00	!LO:N:vis=00
4r	.	0.r	0.r	0.r	.	4r	.	4r	.	0.r	0.r
!LO:TX:a:t=adagio	!	!	!	!	!	!	!	!	!	!	!
4B-\	.	.	.	.	.	4dd\	A-	4ff\	[A]-	.	.
4E-\	.	.	.	.	.	4ee-\	-ue	4gg\	-ue	.	.
=2	=2	=2	=2	=2	=2	=2	=2	=2	=2	=2	=2
!	!	!	!	!	!	!LO:TX:a:t=P:problem=zamazane główki nut	!	!LO:TX:a:t=P:problem=zamazane główki nut	!	!	!
4BB-/	.	.	.	.	.	4dd\	Re-	4ff\	Re-	.	.
*	*	*	*	*	*	*2\right	*	*2\right	*	*	*
2C/	.	.	.	.	.	2cc\T	-gi-	2ee-\T	-gi-	.	.
=3	=3	=3	=3	=3	=3	=3	=3	=3	=3	=3	=3
4BB-/	.	.	.	.	.	2b-\	-na	2dd\	-na	.	.
4D/	.	.	.	.	.	.	.	.	.	.	.
4E-\	.	.	.	.	.	4cc\	Coe-	4ee-\	Coe-	.	.
=4	=4	=4	=4	=4	=4	=4	=4	=4-	=4	=4	=4
*2\right	*	*	*	*	*	*	*	*	*	*	*
2F\	.	.	.	.	.	2a\	-lo-	2cc\	-lo-	.	.
4BB-/	4	.	.	.	.	4b-\	-rum	4b-\	-rum	.	.
.	3	.	.	.	.	.	.	.	.	.	.
=5	=5	=5-	=5-	=5	=5	=5-	=5	=5	=5	=5-	=5-
!	!	!	!	!LO:N:vis=00	!	!LO:N:vis=00	!	!LO:N:vis=00	!	!	!
4r	.	4r	4r	0.r	.	0.r	.	0.r	.	4r	4r
4B-\	.	4dd\	4ff\	.	.	.	.	.	.	4dd\	4ff\
4E-\	6	4ee-\	4gg\	.	.	.	.	.	.	4ee-\	4gg\
=6	=6	=6	=6	=6	=6	=6	=6	=6	=6	=6	=6-
2BB-/	.	4.dd\	(4.ff\	.	.	.	.	.	.	4.dd\	4.ff\
.	.	8cc\	8ee-\M)	.	.	.	.	.	.	8cc\	8ee-\
4BB-/	.	4b-\	4dd\	.	.	.	.	.	.	4b-\	4dd\
=7	=7	=7	=7	=7	=7	=7	=7	=7	=7	=7-	=7-
4BB-/	.	4dd\	4ff\	.	.	.	.	.	.	4dd\	4ff\
4D/	.	8ee-\L	8gg\L	.	.	.	.	.	.	(8ee-\L	(8gg\L
.	.	8dd\	8ff\	.	.	.	.	.	.	8dd\)	8ff\J)
4E-\	.	8cc\	8ee-\	.	.	.	.	.	.	(8cc\	(8ee-\L
.	.	8b-\J	8dd\J	.	.	.	.	.	.	8b-\J)	8dd\J)
!LO:LB:g=original	!	!	!	!	!	!	!	!	!	!	!
=8	=8	=8	=8	=8	=8	=8	=8	=8	=8	=8-	=8-
*	*	*	*2\right	*	*	*	*	*	*	*	*2\right
2F\	.	2f/	2cc\	.	.	.	.	.	.	2f/	2cc\
4BB-/	4	4b-/	4b-\	.	.	.	.	.	.	4d/	4b-\
.	3	.	.	.	.	.	.	.	.	.	.
=9	=9	=9	=9-	=9-	=9	=9	=9	=9-	=9	=9-	=9-
!	!	!LO:N:vis=00	!LO:N:vis=0	!	!	!	!	!	!	!LO:N:vis=00	!LO:N:vis=0
4B-\	6	0.r	1.r	8r	.	2.r	.	2.r	.	0.r	1.r
.	.	.	.	8B-\L	A-	.	.	.	.	.	.
4r	.	.	.	8A\	.	.	.	.	.	.	.
.	.	.	.	8G\	.	.	.	.	.	.	.
4r	.	.	.	8F\	.	.	.	.	.	.	.
.	.	.	.	8A\J	.	.	.	.	.	.	.
=10	=10	=10	=10	=10	=10	=10-	=10	=10-	=10	=10	=10
4BB-/	.	.	.	8B-\	.	4.dd\	Do-	4.ff\	Do-	.	.
.	.	.	.	8B-\	-ue	.	.	.	.	.	.
4E-\	.	.	.	4r	.	.	.	.	.	.	.
.	.	.	.	.	.	8cc\	-mi-	8ee-\	-mi-	.	.
4BB-/	.	.	.	4r	.	4b-\	-na	4dd\	-na	.	.
=11	=11	=11	=11-	=11	=11	=11	=11	=11	=11	=11	=11-
*	*	*	*	*	*	*	*ij	*	*ij	*	*
!	!	!	!	!LO:N:vis=00	!	!	!	!	!	!	!
2FF/	.	.	2.r	0.r	.	4.b-\	Do-	(4.dd\	Do-	.	2.r
.	.	.	.	.	.	8a\	-mi-	8cc\)	-mi-	.	.
4BB-/	4	.	.	.	.	4b-\	-na	4b-\	-na	.	.
.	3	.	.	.	.	.	.	.	.	.	.
*	*	*	*	*	*	*	*Xij	*	*Xij	*	*
!	!	!	!	!	!	!	!LO:LB:g=original	!LO:LB:g=original	!	!	!
=12	=12	=12	=12-	=12	=12	=12	=12	=12	=12	=12	=12-
!	!	!	!	!	!	!LO:N:vis=00	!	!LO:N:vis=00	!	!	!
4FF/	.	.	8.b-\L	.	.	0.r	.	0.r	.	.	8.b-\L
.	.	.	16cc\K	.	.	.	.	.	.	.	16cc\K
4r	.	.	8.b-\	.	.	.	.	.	.	.	8.b-\
.	.	.	16cc\K	.	.	.	.	.	.	.	16cc\K
4r	.	.	8.b-\	.	.	.	.	.	.	.	8.b-\
.	.	.	16cc\Jk	.	.	.	.	.	.	.	16cc\Jk
=13	=13	=13-	=13	=13	=13	=13	=13	=13	=13	=13-	=13
!	!	!LO:N:vis=4.	!	!	!	!	!	!	!	!	!
4B-\	.	8.b-\	8.dd\L	.	.	.	.	.	.	8b-\L	8.dd\L
.	.	.	.	.	.	.	.	.	.	8cc\	.
.	.	16cc\KL	16ee-\K	.	.	.	.	.	.	.	16ee-\K
4r	.	8.b-\	8.dd\	.	.	.	.	.	.	8b-\	8.dd\
.	.	.	.	.	.	.	.	.	.	8cc\	.
.	.	16cc\K	16ee-\K	.	.	.	.	.	.	.	16ee-\K
4r	.	8.b-\	8.dd\	.	.	.	.	.	.	8b-\	8.dd\
.	.	.	.	.	.	.	.	.	.	8cc\J	.
.	.	16cc\Jk	16ee-\Jk	.	.	.	.	.	.	.	16ee-\Jk
!	!	!	!LO:LB:g=original	!	!	!	!	!	!	!	!
=14	=14	=14	=14	=14	=14	=14	=14	=14	=14	=14-	=14-
4.BB-/	.	4.dd\	4.ff\	.	.	.	.	.	.	4.dd\	4.ff\
8C/	.	8cc\	8ee-\	.	.	.	.	.	.	8cc\	8ee-\
4D/	.	4b-\	4dd\	.	.	.	.	.	.	4b-\	4dd\
!	!	!LO:LB:g=original	!	!	!	!	!	!	!	!	!
=15	=15	=15	=15	=15-	=15	=15	=15	=15	=15	=15-	=15-
4E-\	.	8cc\L	8ee-\L	2.r	.	.	.	.	.	8cc\L	8ee-\L
.	.	8b-\J	8dd\J	.	.	.	.	.	.	8b-\J	8dd\J
4F\	.	2f/	2cc\	.	.	.	.	.	.	2f/	2cc\
4FF/	4	.	.	.	.	.	.	.	.	.	.
.	3	.	.	.	.	.	.	.	.	.	.
=16	=16	=16	=16	=16	=16	=16	=16	=16-	=16	=16-	=16-
4BB-/	.	4b-/	4b-\	8r	.	2.r	.	2.r	.	4d/	4b-\
.	.	.	.	8B-\L	a-	.	.	.	.	.	.
4r	.	4r	4r	8A\	.	.	.	.	.	4r	4r
.	.	.	.	8G\	.	.	.	.	.	.	.
4r	.	4r	4r	8F\	.	.	.	.	.	4r	4r
.	.	.	.	8A\J	.	.	.	.	.	.	.
!LO:LB:g=original	!	!	!	!	!	!	!	!	!	!	!LO:LB:g=original
=17	=17	=17-	=17	=17	=17	=17-	=17	=17-	=17	=17-	=17-
!	!	!	!LO:TX:a:t=3	!	!	!	!	!	!	!	!
!	!	!LO:N:vis=0	!LO:N:vis=0	!	!	!	!	!	!	!LO:N:vis=0	!LO:N:vis=0
4BB-/	.	1.r	1.r	8B-\	.	4.dd\	Do-	4.ff\	Do-	1.r	1.r
.	.	.	.	8B-\	-ue	.	.	.	.	.	.
4E-\	.	.	.	4r	.	.	.	.	.	.	.
.	.	.	.	.	.	8cc\	-mi-	8ee-\	-mi-	.	.
4BB-/	.	.	.	4r	.	4b-\	-na	4dd\	-na	.	.
!	!	!	!	!LO:LB:g=original	!	!	!	!	!	!	!
=18	=18	=18	=18	=18	=18	=18	=18	=18	=18	=18	=18
4BB-/	.	.	.	(4B-\	An-	(4b-\	an-	(4b-\	An-	.	.
4D/	.	.	.	4A\	.	4a\	.	4cc\	.	.	.
4E-\	.	.	.	4B-\)	-ge-	4b-\)	-ge-	4dd\)	-ge-	.	.
=19	=19	=19-	=19-	=19	=19	=19	=19	=19	=19	=19-	=19-
*	*	*	*	*2\right	*	*	*	*	*	*	*
2F\	.	2.r	2.r	2F\	-lo-	2a\	-lo-	2cc\	-lo-	2.r	2.r
4BB-/	.	.	.	4BB-/	-rum	4b-\	-rum	4b-\	-rum	.	.
!	!	!	!	!	!	!	!	!	!	!LO:LB:g=original	!
=20	=20	=20-	=20-	=20	=20	=20	=20	=20-	=20	=20	=20-
!	!	!	!	!LO:N:vis=00	!	!LO:N:vis=00	!	!LO:N:vis=00	!	!	!
4BB-/	.	8dd\L	8ff\L	0.r	.	0.r	.	0.r	.	8dd\L	8ff\L
.	.	8ee-\	8gg\	.	.	.	.	.	.	8ee-\	8gg\
4r	.	8dd\	8ff\	.	.	.	.	.	.	8dd\	8ff\
.	.	8cc\	8ee-\	.	.	.	.	.	.	8cc\	8ee-\
4r	.	8b-\	8dd\	.	.	.	.	.	.	8b-\	8dd\
.	.	8dd\J	8ff\J	.	.	.	.	.	.	8dd\J	8ff\J
=21	=21	=21	=21	=21	=21	=21	=21	=21	=21	=21	=21
4E-\	.	8cc\L	8ee-\L	.	.	.	.	.	.	8cc\L	8ee-\L
.	.	8dd\	8ff\	.	.	.	.	.	.	8dd\	8ff\
4r	.	8cc\	8ee-\	.	.	.	.	.	.	8cc\	8ee-\
.	.	8b-\	8dd\	.	.	.	.	.	.	8b-\	8dd\
4r	.	8a\	8cc\	.	.	.	.	.	.	8f\	8cc\
.	.	8cc\J	8ee-\J	.	.	.	.	.	.	8cc\J	8ee-\J
=22	=22	=22	=22	=22	=22	=22	=22	=22	=22	=22-	=22-
4B-\	6	8b-\L	8dd\L	.	.	.	.	.	.	8b-\L	8dd\L
.	.	8a/J	8ee-\J	.	.	.	.	.	.	8cc\J	8ee-\J
4A\	6	2f/	2cc\	.	.	.	.	.	.	2f/	2cc\
4F\	.	.	.	.	.	.	.	.	.	.	.
=23	=23	=23	=23	=23	=23	=23	=23	=23	=23	=23	=23
4BB-/	.	4b-/	4b-/	.	.	.	.	.	.	4d/	4b-\
4r	.	4r	4r	.	.	.	.	.	.	4r	4r
4r	.	4r	4r	.	.	.	.	.	.	4r	4r
!LO:LB:g=original	!	!LO:LB:g=original	!LO:LB:g=original	!	!	!	!	!	!	!	!
=24||	=24||	=24||	=24||	=24||	=24||	=24||	=24||	=24||	=24||	=24||	=24||
*M2/2	*	*M2/2	*M2/2	*M2/2	*	*M2/2	*	*M2/2	*	*M2/2	*M2/2
*met(c|)	*	*met(c|)	*met(c|)	*met(c|)	*	*met(c|)	*	*met(c|)	*	*met(c|)	*met(c|)
!	!	!	!LO:TX:b:t=Z C.C. Gaude Virgo	!LO:TX:a:t=Salve Radix\n Tacet	!	!	!	!	!	!	!
8BB-/L	.	0r	0r	1ryy	.	16dd\LL	Sal-	16ff\LL	Sal-	0r	0r
.	.	.	.	.	.	16cc\	.	16ee-\	.	.	.
8C/	.	.	.	.	.	16dd\	.	16ff\	.	.	.
.	.	.	.	.	.	16ee-\JJ	.	16gg\JJ	.	.	.
8D\	.	.	.	.	.	16dd\LL	.	16ff\LL	.	.	.
.	.	.	.	.	.	16ee-\	.	16gg\	.	.	.
8BB-/J	.	.	.	.	.	16dd\	.	16ff\	.	.	.
.	.	.	.	.	.	16ee-\JJ	.	16gg\JJ	.	.	.
8E-\L 8C\	.	.	.	.	.	16cc\LL	.	16ee-\LL	.	.	.
.	.	.	.	.	.	16b-\	.	16dd\	.	.	.
8F\ 8BB-\	.	.	.	.	.	16cc\	.	16ee-\	.	.	.
.	.	.	.	.	.	16dd\JJ	.	16ff\JJ	.	.	.
!	!	!	!	!	!	!LO:LB:g=original	!	!	!	!	!
8G\ 8C\	.	.	.	.	.	16cc\LL	.	16ee-\LL	.	.	.
.	.	.	.	.	.	16dd\	.	16ff\	.	.	.
8E-\J 8AA\	6	.	.	.	.	16cc\	.	16ee-\	.	.	.
.	.	.	.	.	.	16dd\JJ	.	16ff\JJ	.	.	.
=25	=25	=25	=25	=25	=25	=25	=25	=25	=25	=25	=25
8BB-/L	.	.	.	1ryy	.	16ff\LL	.	16dd\LL	.	.	.
.	.	.	.	.	.	16ee-\	.	16cc\	.	.	.
8C/	.	.	.	.	.	16ff\	.	16dd\	.	.	.
.	.	.	.	.	.	16gg\JJ	.	16ee-\JJ	.	.	.
!	!	!	!	!	!	!	!	!LO:LB:g=original	!	!	!
8D\	.	.	.	.	.	16ff\LL	.	16dd\LL	.	.	.
.	.	.	.	.	.	16gg\	.	16ee-\	.	.	.
8BB-/J	.	.	.	.	.	16ff\	.	16dd\	.	.	.
.	.	.	.	.	.	16gg\JJ	.	16ee-\JJ	.	.	.
8E-\L	.	.	.	.	.	16ee-\LL	.	16cc\LL	.	.	.
.	.	.	.	.	.	16dd\	.	16b-\	.	.	.
8F\	.	.	.	.	.	16ee-\	.	16cc\	.	.	.
.	.	.	.	.	.	16ff\JJ	.	16dd\JJ	.	.	.
8G\	.	.	.	.	.	16ee-\LL	.	16cc\LL	.	.	.
.	.	.	.	.	.	16ff\	.	16dd\	.	.	.
8E-\J	.	.	.	.	.	16ee-\	.	16cc\	.	.	.
.	.	.	.	.	.	16ff\JJ	.	16dd\JJ	.	.	.
=26	=26	=26-	=26-	=26	=26	=26	=26	=26	=26	=26-	=26-
!LO:TX:a:t=P:problem=mixed beam	!	!	!	!	!	!	!	!	!	!	!
8E-\L	.	2r	2r	1ryy	.	8b-\	.	8cc\	.	2r	2r
8C\	.	.	.	.	.	8cc\	-ue	8dd\	-ue	.	.
8F\	.	.	.	.	.	4a\	ra-	4cc\	ra-	.	.
8FF/J	4	.	.	.	.	.	.	.	.	.	.
.	3	.	.	.	.	.	.	.	.	.	.
!	!	!LO:TX:b:t=gaude Virgo	!LO:TX:a:t=allegro	!	!	!	!	!	!	!	!
8BB-/L	.	16dd\LL	16ff\LL	.	.	4b-\	-dix	4b-\	-dix	8dd\L	8ff\L
.	.	16cc\	16ee-\	.	.	.	.	.	.	.	.
8C/	.	16dd\	16ff\	.	.	.	.	.	.	8dd\	8ff\
.	.	16ee-\JJ	16gg\JJ	.	.	.	.	.	.	.	.
8D\	.	16dd\LL	16ff\LL	.	.	4r	.	4r	.	8dd\	8ff\
.	.	16ee-\	16gg\	.	.	.	.	.	.	.	.
8BB-/J	.	16dd\	16ff\	.	.	.	.	.	.	8dd\J	8ff\J
.	.	16ee-\JJ	16gg\JJ	.	.	.	.	.	.	.	.
=27	=27	=27	=27	=27	=27	=27-	=27	=27	=27	=27	=27
8E-\L	.	16cc\LL	16ee-\LL	1ryy	.	0r	.	0r	.	8cc\L	8ee-\L
.	.	16b-\	16dd\	.	.	.	.	.	.	.	.
8F\	.	16cc\	16ee-\	.	.	.	.	.	.	8cc\	8ee-\
.	.	16dd\JJ	16ff\JJ	.	.	.	.	.	.	.	.
8G\	.	16cc\LL	16ee-\LL	.	.	.	.	.	.	8cc\	8ee-\
.	.	16dd\	16ff\	.	.	.	.	.	.	.	.
8E-\J	.	16cc\	16ee-\	.	.	.	.	.	.	8cc\J	8ee-\J
.	.	16dd\JJ	16ff\JJ	.	.	.	.	.	.	.	.
8BB-/L	.	16ff\LL	16dd\LL	.	.	.	.	.	.	8b-\L	8dd\L
.	.	16ee-\	16cc\	.	.	.	.	.	.	.	.
8C/	.	16ff\	16dd\	.	.	.	.	.	.	8b-\	8dd\
.	.	16gg\JJ	16ee-\JJ	.	.	.	.	.	.	.	.
8D\	.	16ff\LL	16dd\LL	.	.	.	.	.	.	8b-\	8dd\
.	.	16gg\	16ee-\	.	.	.	.	.	.	.	.
!LO:TX:a:t=P:problem=nie widać ostatniej nuty	!	!	!	!	!	!	!	!	!	!	!
8BB-/Jyy	.	16ff\	16dd\	.	.	.	.	.	.	8b-\J	8dd\J
.	.	16gg\JJ	16ee-\JJ	.	.	.	.	.	.	.	.
!LO:LB:g=original	!	!	!	!	!	!	!	!	!	!	!
=28	=28	=28	=28	=28	=28	=28	=28	=28	=28	=28	=28
8E-\L	.	16ee-\LL	16cc\LL	1ryy	.	.	.	.	.	8f/L	8cc\L
.	.	16dd\	16b-\	.	.	.	.	.	.	.	.
8F\	.	16ee-\	16cc\	.	.	.	.	.	.	8f/	8cc\
.	.	16ff\JJ	16dd\JJ	.	.	.	.	.	.	.	.
8G\	.	16ee-\LL	16cc\LL	.	.	.	.	.	.	8f/	8cc\
.	.	16ff\	16dd\	.	.	.	.	.	.	.	.
8E-\J	.	16ee-\	16cc\	.	.	.	.	.	.	8f/J	8cc\J
.	.	16ff\JJ	16dd\JJ	.	.	.	.	.	.	.	.
!	!	!LO:LB:g=original	!	!	!	!	!	!	!	!	!
8E-\L	.	8dd\L	8ff\L	.	.	.	.	.	.	8dd\L	8ff\L
8C\	.	16cc\L	16ee-\L	.	.	.	.	.	.	16cc\L	16ee-\L
.	.	16b-\JJ	16dd\JJ	.	.	.	.	.	.	16b-\JJ	16dd\JJ
!LO:TX:a:t=P:problem=mixed beam	!	!	!	!	!	!	!	!	!	!	!
8F\	.	4f/	4cc\	.	.	.	.	.	.	4f/	4cc\
8FF/J	4	.	.	.	.	.	.	.	.	.	.
.	3	.	.	.	.	.	.	.	.	.	.
!	!	!	!	!	!	!	!	!	!	!LO:LB:g=original	!LO:LB:g=original
=29	=29	=29	=29	=29	=29	=29-	=29	=29-	=29	=29-	=29-
8BB-/L	.	4b-/	4b-/	1ryy	.	4r	.	16b-\LL	Sal-	4d/	4b-\
.	.	.	.	.	.	.	.	16cc\	.	.	.
8C/	.	.	.	.	.	.	.	16b-\	.	.	.
.	.	.	.	.	.	.	.	16cc\JJ	.	.	.
8D\	.	4r	4r	.	.	16b-\LL	Sal-	16dd\LL	.	4r	4r
.	.	.	.	.	.	16cc\	.	16ee-\	.	.	.
8BB-/J	.	.	.	.	.	16b-\	.	16dd\	.	.	.
.	.	.	.	.	.	16cc\JJ	.	16ee-\JJ	.	.	.
!LO:TX:a:t=P:problem=mixed beam	!	!	!	!	!	!LO:LB:g=original	!	!	!	!	!
8A-X\L	.	2r	2r	.	.	8dd\	.	8ff\	.	2r	2r
8F\	.	.	.	.	.	8ee-\	-ue	8gg\	-ue	.	.
!LO:TX:a:t=P:problem=bemol above	!	!	!	!	!	!LO:TX:a:t=P:problem=przekreślona kreska taktowa	!	!	!	!	!
8B-X\ 8A-\	.	.	.	.	.	4dd\	por-	4ff\	por-	.	.
8BB-/J	4	.	.	.	.	.	.	.	.	.	.
.	3	.	.	.	.	.	.	.	.	.	.
!	!	!	!LO:LB:g=original	!	!	!	!	!	!	!	!
=30	=30	=30	=30	=30	=30	=30	=30	=30	=30	=30-	=30-
8E-\L	.	16g/LL	16ee-\LL	1ryy	.	4ee-\	-ta	4ee-\	-ta	00r	00r
.	.	16f/	16dd\	.	.	.	.	.	.	.	.
8E-\	.	16e-/	16cc\	.	.	.	.	.	.	.	.
.	.	16g/JJ	16ee-\JJ	.	.	.	.	.	.	.	.
8BB-\	.	16f/LL	16dd\LL	.	.	4r	.	4r	.	.	.
.	.	16e-/	16cc\	.	.	.	.	.	.	.	.
8BB-\J	.	16d/	16b-\	.	.	.	.	.	.	.	.
.	.	16f/JJ	16dd\JJ	.	.	.	.	.	.	.	.
!LO:TX:a:t=P:problem=mixed beam	!	!	!	!	!	!	!	!	!	!	!
8A-X\L	.	16g/LL	16ee-\LL	.	.	2r	.	2r	.	.	.
.	.	16b-\	16gg\	.	.	.	.	.	.	.	.
!	!	!LO:TX:b:t=P:problem=bemol below	!	!	!	!	!	!	!	!	!
8F\	.	16a-/	16ff\	.	.	.	.	.	.	.	.
.	.	16g/JJ	16ee-\JJ	.	.	.	.	.	.	.	.
!LO:TX:a:t=P:problem=bemol above	!	!	!	!	!	!	!	!	!	!	!
8B-X\	.	4b-/	16dd\LL	.	.	.	.	.	.	.	.
.	.	.	16ee-\	.	.	.	.	.	.	.	.
8BB-/J	4	.	16cc\	.	.	.	.	.	.	.	.
.	3	.	16dd\JJ	.	.	.	.	.	.	.	.
!	!	!	!	!	!	!	!	!LO:LB:g=original	!	!	!
=31	=31	=31	=31	=31	=31	=31	=31	=31	=31	=31	=31
8E-\L	.	4ee-\	4ee-\	1ryy	.	16g\LL	Sal-	16ee-\LL	Sal-	.	.
!	!	!	!	!	!	!LO:TX:a:t=P:problem=bemol above	!	!	!	!	!
.	.	.	.	.	.	16a-\	.	16ff\	.	.	.
8F\	.	.	.	.	.	16g\	.	16ee-\	.	.	.
!	!	!	!	!	!	!LO:TX:a:t=P:problem=bemol above	!	!	!	!	!
.	.	.	.	.	.	16a-X\JJ	.	16ff\JJ	.	.	.
8G\	.	4r	4r	.	.	16g\LL	.	16ee-\LL	.	.	.
!	!	!	!	!	!	!LO:TX:a:t=P:problem=bemol above	!	!	!	!	!
.	.	.	.	.	.	16a-X\	.	16ff\	.	.	.
8E-\J	.	.	.	.	.	16g\	.	16ee-\	.	.	.
!	!	!	!	!	!	!LO:TX:a:t=P:problem=bemol above	!	!	!	!	!
.	.	.	.	.	.	16a-X\JJ	.	16ff\JJ	.	.	.
8B-\L	.	2r	2r	.	.	16f/LL	.	16dd\LL	.	.	.
.	.	.	.	.	.	16g\	.	16ee-\	.	.	.
8c\	.	.	.	.	.	16f/	.	16dd\	.	.	.
.	.	.	.	.	.	16g\JJ	.	16ee-\JJ	.	.	.
8d\	.	.	.	.	.	16f/LL	.	16dd\LL	.	.	.
.	.	.	.	.	.	16g\	.	16ee-\	.	.	.
!LO:TX:a:t=P:problem=nie widać ostatniej nuty w takcie	!	!	!	!	!	!	!	!	!	!	!
8B-\Jyy	.	.	.	.	.	16e-/	.	16cc\	.	.	.
.	.	.	.	.	.	16f/JJ	.	16dd\JJ	.	.	.
!LO:LB:g=original	!	!	!	!	!	!	!	!	!	!	!
=32	=32	=32	=32	=32	=32	=32	=32	=32	=32	=32	=32
!LO:TX:a:t=P:problem=mixed beam	!	!	!	!	!	!	!	!	!	!	!
8E-\L	.	4r	4r	1ryy	.	8g/	.	8ee-\	.	.	.
8FF/	.	.	.	.	.	8g/	-ue	8ee-\	-ue	.	.
8C/	.	16gg\LL	16bb-\LL	.	.	4r	.	4r	.	.	.
.	.	16ff\	16aa\	.	.	.	.	.	.	.	.
8D/J	.	16ee-\	16gg\	.	.	.	.	.	.	.	.
.	.	16dd\JJ	16ff\JJ	.	.	.	.	.	.	.	.
!LO:TX:a:t=P:problem=mixed beam	!	!	!	!	!	!	!	!	!	!	!
8E-\L	.	16ee-\LL	16gg\LL	.	.	2r	.	2r	.	.	.
.	.	16dd\	16ff\	.	.	.	.	.	.	.	.
8C\	6 5	16cc\	16ee-\	.	.	.	.	.	.	.	.
.	.	16b-\JJ	16dd\JJ	.	.	.	.	.	.	.	.
!	!	!LO:LB:g=original	!	!	!	!	!	!	!	!	!
8F\	.	16a\LL	16cc\LL	.	.	.	.	.	.	.	.
.	.	16cc\	16ee-\	.	.	.	.	.	.	.	.
8FF/J	4	16b-\	16dd\	.	.	.	.	.	.	.	.
.	3	16f\JJ	16cc\JJ	.	.	.	.	.	.	.	.
!	!	!	!	!	!	!LO:LB:g=original	!	!	!	!	!
=33	=33	=33	=33	=33	=33	=33	=33	=33	=33	=33	=33
4BB-/	.	4b-/	4b-/	1ryy	.	2r	.	4r	.	.	.
8BB-/L	.	4r	4r	.	.	.	.	8ff\	ex	.	.
8C/	.	.	.	.	.	.	.	8cc\	qua	.	.
8D\	.	2r	2r	.	.	4r	.	8dd\	mun-	.	.
8BB-/J	.	.	.	.	.	.	.	8b-\	-do	.	.
8B-\L	.	.	.	.	.	8b-\	lux	4r	.	.	.
8A\J	.	.	.	.	.	8cc\	ex-	.	.	.	.
=34	=34	=34	=34-	=34	=34	=34	=34	=34	=34	=34-	=34-
8G\L	.	0r	0r	1ryy	.	8dd\	-or-	4r	.	0r	0r
8B-\	.	.	.	.	.	8b-\	-ta	.	.	.	.
8G\	.	.	.	.	.	16dd\LL	Sal-	16ff\LL	Sal-	.	.
.	.	.	.	.	.	16cc\	.	16ee-\	.	.	.
8E-\J	.	.	.	.	.	16b-\	.	16dd\	.	.	.
.	.	.	.	.	.	16cc\JJ	.	16ee-\JJ	.	.	.
!	!	!	!	!	!	!	!	!LO:LB:g=original	!	!	!
8BB-/L	.	.	.	.	.	16dd\LL	.	16ff\LL	.	.	.
.	.	.	.	.	.	16ee-\	.	16gg\	.	.	.
8C/	.	.	.	.	.	16dd\	.	16ff\	.	.	.
.	.	.	.	.	.	16ee-\JJ	.	16gg\JJ	.	.	.
8D\	.	.	.	.	.	16dd\LL	.	16ff\LL	.	.	.
.	.	.	.	.	.	16ee-\	.	16gg\	.	.	.
8BB-/J	.	.	.	.	.	16dd\	.	16ff\	.	.	.
.	.	.	.	.	.	16ee-\JJ	.	16gg\JJ	.	.	.
=35	=35	=35	=35	=35	=35	=35	=35	=35	=35	=35	=35
8E-\L	.	.	.	1ryy	.	16cc\LL	.	16ee-\LL	.	.	.
.	.	.	.	.	.	16dd\	.	16ff\	.	.	.
8F\	.	.	.	.	.	16cc\	.	16ee-\	.	.	.
.	.	.	.	.	.	16dd\JJ	.	16ff\JJ	.	.	.
!	!	!	!	!	!	!LO:TX:a:t=P:problem=cztery szesnastki zapisane repetycją	!	!	!	!	!
8G\	.	.	.	.	.	16cc\LLyy	.	16ee-\LL	.	.	.
.	.	.	.	.	.	16dd\yy	.	16ff\	.	.	.
8E-\J	.	.	.	.	.	16cc\yy	.	16ee-\	.	.	.
.	.	.	.	.	.	16dd\JJyy	.	16ff\JJ	.	.	.
!LO:TX:a:t=P:problem=mixed beam	!	!	!	!	!	!	!	!	!	!	!
8E-\L	.	.	.	.	.	8a\	.	8cc\	.	.	.
8C\	6 5	.	.	.	.	8b-\	-ue	8dd\	-ue	.	.
8F\	.	.	.	.	.	4f/	Sal-	4cc\	Sal-	.	.
8FF/J	4	.	.	.	.	.	.	.	.	.	.
.	3	.	.	.	.	.	.	.	.	.	.
!LO:LB:g=original	!	!	!	!	!	!	!	!	!	!	!
=36	=36	=36-	=36-	=36	=36	=36	=36	=36	=36	=36-	=36-
8FF/L	.	16b-/LL	16dd\LL	1ryy	.	4b-\	-ue	4b-\	-ue	16b-\LL	16dd\LL
.	.	16b-/	16dd\	.	.	.	.	.	.	16b-\	16dd\
16GG/L	.	16b-/	16dd\	.	.	.	.	.	.	16b-\	16dd\
16AA/J	.	16b-/JJ	16dd\JJ	.	.	.	.	.	.	16b-\JJ	16dd\JJ
!	!	!	!LO:LB:g=original	!	!	!	!	!	!	!	!
8BB-/	.	16b-/LL	16dd\LL	.	.	4r	.	4r	.	8b-\L	8dd\L
.	.	16b-/	16dd\	.	.	.	.	.	.	.	.
8GG/J	.	16b-/	16dd\	.	.	.	.	.	.	8b-\J	8dd\J
.	.	16b-/JJ	16dd\JJ	.	.	.	.	.	.	.	.
8D\L	.	16a/LL	16cc\LL	.	.	2r	.	2r	.	8f/L	8cc\L
.	.	16a/	16cc\	.	.	.	.	.	.	.	.
8C/	.	16a/	16cc\	.	.	.	.	.	.	8f/J	8cc\J
.	.	16a/JJ	16cc\JJ	.	.	.	.	.	.	.	.
!	!	!	!	!	!	!	!	!	!	!	!LO:TX:a:t=P:problem=mixed beam
8D\	.	8.g/L	8.b-\L	.	.	.	.	.	.	4d/	8b-\L
8DD/J	4	.	.	.	.	.	.	.	.	.	8d/J
!	!	!LO:TX:b:t=P:problem=# below	!	!	!	!	!	!	!	!	!
.	3	16f#X/Jk	16a/Jk	.	.	.	.	.	.	.	.
!	!	!	!	!	!	!LO:LB:g=original	!	!	!	!	!
=37	=37	=37	=37	=37	=37	=37	=37	=37	=37	=37	=37
4GG/	.	4g/	4g/	1ryy	.	2r	.	4r	.	4d/	4d/
!LO:TX:a:t=P:problem=mixed beam	!	!	!	!	!	!	!	!	!	!	!
8G\L	.	4r	4r	.	.	.	.	8dd\	ex	4r	4r
!LO:TX:a:t=P:problem=# above, dopisany ołówkiem	!	!	!	!	!	!	!	!	!	!	!
8F#\	.	.	.	.	.	.	.	8a\	qua	.	.
8G\	.	2r	2r	.	.	4r	.	8b-\	mun-	2r	2r
8GG/J	.	.	.	.	.	.	.	8g\	-do	.	.
8G\L	.	.	.	.	.	8g\	lux	4r	.	.	.
!LO:TX:a:t=P:problem=# above, dopisany ołówkiem	!	!	!	!	!	!	!	!	!	!	!
8F#X\J	.	.	.	.	.	8a\	ex-	.	.	.	.
=38	=38	=38	=38-	=38	=38	=38	=38	=38	=38	=38-	=38-
8G\L	.	0r	0r	1ryy	.	8b-\	-or-	4r	.	00r	00r
!LO:TX:a:t=P:problem=# above, dopisany ołówkiem	!	!	!	!	!	!	!	!	!	!	!
8F#\	.	.	.	.	.	8g\	-ta	.	.	.	.
*	*	*	*	*	*	*	*	*	*ij	*	*
8G\	.	.	.	.	.	4r	.	8dd\	ex	.	.
!LO:TX:a:t=P:problem=# above, dopisany ołówkiem	!	!	!	!	!	!	!	!LO:LB:g=original	!	!	!
8F#X\J	.	.	.	.	.	.	.	8a\	qua	.	.
!LO:TX:a:t=P:problem=mixed beam	!	!	!	!	!	!	!	!	!	!	!
8G\L	.	.	.	.	.	4r	.	8b-\	mun-	.	.
8GG/	.	.	.	.	.	.	.	8g\	-do	.	.
*	*	*	*	*	*	*	*	*	*Xij	*	*
8G\	.	.	.	.	.	8g\	lux	4r	.	.	.
!LO:TX:a:t=P:problem=# above, dopisany ołówkiem	!	!	!	!	!	!	!	!	!	!	!
8F#X\J	.	.	.	.	.	8a\	et	.	.	.	.
=39	=39	=39	=39	=39	=39	=39	=39	=39	=39	=39	=39
!LO:TX:a:t=P:problem=mixed beam	!	!	!	!	!	!	!	!	!	!	!
8G\L	.	.	.	1ryy	.	8b-\	or-	4r	.	.	.
8GG/	.	.	.	.	.	8g\	-ta	.	.	.	.
8C/	.	.	.	.	.	16b-\LL	Sal-	16dd\LL	Sal-	.	.
.	.	.	.	.	.	16a\	.	16cc\	.	.	.
8G\J	.	.	.	.	.	16g\	.	16b-\	.	.	.
.	.	.	.	.	.	16a\JJ	.	16cc\JJ	.	.	.
8GG/L	.	.	.	.	.	16b-\LL	.	16dd\LL	.	.	.
.	.	.	.	.	.	16cc\	.	16ee-\	.	.	.
8AA/	.	.	.	.	.	16b-\	.	16dd\	.	.	.
.	.	.	.	.	.	16cc\JJ	.	16ee-\JJ	.	.	.
8BB-/	.	.	.	.	.	16b-\LL	.	16dd\LL	.	.	.
.	.	.	.	.	.	16cc\	.	16ee-\	.	.	.
8GG/J	.	.	.	.	.	16b-\	.	16dd\	.	.	.
.	.	.	.	.	.	16cc\JJ	.	16ee-\JJ	.	.	.
!LO:LB:g=original	!	!	!	!	!	!LO:LB:g=original	!	!	!	!	!
=40	=40	=40-	=40-	=40	=40	=40	=40	=40	=40	=40	=40
8C/L	.	1r	1r	1ryy	.	16a\LL	.	16cc\LL	.	.	.
.	.	.	.	.	.	16g\	.	16b-\	.	.	.
8D\	.	.	.	.	.	16a\	.	16cc\	.	.	.
.	.	.	.	.	.	16b-\JJ	.	16dd\JJ	.	.	.
8E-\	.	.	.	.	.	16a\LL	.	16cc\LL	.	.	.
.	.	.	.	.	.	16b-\	.	16dd\	.	.	.
8C/J	.	.	.	.	.	16a\	.	16cc\	.	.	.
.	.	.	.	.	.	16b-\JJ	.	16dd\JJ	.	.	.
8C/L	.	.	.	.	.	8g\	.	8b-\	.	.	.
8AA/	.	.	.	.	.	8a\	-ue	8cc\	-u	.	.
8D\	.	.	.	.	.	4f/	Sal-	4a\	Sal-	.	.
8DD/J	4	.	.	.	.	.	.	.	.	.	.
.	3	.	.	.	.	.	.	.	.	.	.
=41	=41	=41-	=41-	=41	=41	=41	=41	=41	=41	=41	=41
16GG/LL	.	16g/LL	16g/LL	1ryy	.	4g/	-ue	4g\	-ue	.	.
!	!	!LO:TX:b:t=P:problem=# below	!	!	!	!	!	!	!	!	!
16AA/	.	16f#X/	16a/	.	.	.	.	.	.	.	.
16GG/	.	16g/	16b-\	.	.	.	.	.	.	.	.
16AA/JJ	.	16a/JJ	16cc\JJ	.	.	.	.	.	.	.	.
!	!	!LO:LB:g=original	!	!	!	!	!	!	!	!	!
16BB-/LL	.	16b-\LL	16dd\LL	.	.	4r	.	4r	.	.	.
16C/	.	16cc\	16ee-\	.	.	.	.	.	.	.	.
16BB-/	.	16a/	16cc\	.	.	.	.	.	.	.	.
16C/JJ	.	16b-\JJ	16dd\JJ	.	.	.	.	.	.	.	.
!LO:TX:a:t=P:problem=mixed beam	!	!	!	!	!	!	!	!	!	!	!
8D\L	.	8.g/L	8.b-\L	.	.	2r	.	2r	.	.	.
8DD/J	.	.	.	.	.	.	.	.	.	.	.
!	!	!LO:TX:b:t=P:problem=# below	!	!	!	!	!	!	!	!	!
.	.	16f#X/Jk	16a/Jk	.	.	.	.	.	.	.	.
4GG/	.	4g/	4g/	.	.	.	.	.	.	.	.
!	!	!	!	!	!	!	!	!LO:LB:g=original	!	!	!
=42	=42	=42	=42	=42	=42	=42	=42	=42	=42	=42-	=42-
8GG/L	.	2r	2r	1ryy	.	16b-\LL	Sal-	16dd\LL	Sal-	1r	1r
.	.	.	.	.	.	16a\	.	16cc\	.	.	.
8AA/	.	.	.	.	.	16b-\	.	16dd\	.	.	.
.	.	.	.	.	.	16cc\JJ	.	16ee-\JJ	.	.	.
8BB-/	.	.	.	.	.	16b-\LL	.	16dd\LL	.	.	.
.	.	.	.	.	.	16cc\	.	16ee-\	.	.	.
8GG/J	.	.	.	.	.	16b-\	.	16dd\	.	.	.
.	.	.	.	.	.	16a\JJ	.	16cc\JJ	.	.	.
8E-\L	.	16gg\LL	16bb-\LL	.	.	8g/	.	8b-\	.	.	.
.	.	16ff\	16aa\	.	.	.	.	.	.	.	.
8F\	.	16gg\	16bb-\	.	.	8g/	-ue	8b-\	-ue	.	.
.	.	16aa\JJ	16ccc\JJ	.	.	.	.	.	.	.	.
8G\	.	16gg\LL	16bb-\LL	.	.	4r	.	4r	.	.	.
.	.	16aa\	16ccc\	.	.	.	.	.	.	.	.
8E-\J	.	16gg\	16bb-\	.	.	.	.	.	.	.	.
.	.	16ff\JJ	16aa\JJ	.	.	.	.	.	.	.	.
!	!	!	!LO:LB:g=original	!	!	!	!	!	!	!	!
=43	=43	=43	=43	=43	=43	=43	=43	=43	=43	=43-	=43-
8BB-/L	.	8gg\L	8gg\L	1ryy	.	16dd\LL	Sal-	16ff\LL	Sal-	2r	2r
.	.	.	.	.	.	16cc\	.	16ee-\	.	.	.
8C/	.	8gg\J	8gg\J	.	.	16dd\	.	16ff\	.	.	.
.	.	.	.	.	.	16ee-\JJ	.	16gg\JJ	.	.	.
!	!	!	!	!	!	!LO:LB:g=original	!	!	!	!	!
8D\	.	4r	4r	.	.	16dd\LL	.	16ff\LL	.	.	.
.	.	.	.	.	.	16ee-\	.	16gg\	.	.	.
!LO:TX:a:t=P:problem=nie widać ostatniej nuty	!	!	!	!	!	!	!	!	!	!	!
8BB-/Jyy	.	.	.	.	.	16dd\	.	16ff\	.	.	.
.	.	.	.	.	.	16cc\JJ	.	16ee-\JJ	.	.	.
!LO:LB:g=original	!	!	!	!	!	!	!	!	!	!	!
8B-\L	.	16dd\LL	16ff\LL	.	.	8b-\	.	8dd\	.	16dd\LL	16ff\LL
.	.	16cc\	16ee-\	.	.	.	.	.	.	16cc\	16ee-\
8A\	.	16dd\	16ff\	.	.	8b-\	-ue	8dd\	-ue	16dd\	16ff\
.	.	16ee-\JJ	16gg\JJ	.	.	.	.	.	.	16ee-\JJ	16gg\JJ
8G\	.	16dd\LL	16ff\LL	.	.	4r	.	4r	.	16dd\LL	16ff\LL
.	.	16ee-\	16gg\	.	.	.	.	.	.	16ee-\	16gg\
8B-\J	.	16dd\	16ff\	.	.	.	.	.	.	16dd\	16ff\
.	.	16cc\JJ	16ee-\JJ	.	.	.	.	.	.	16cc\JJ	16ee-\JJ
=44	=44	=44	=44	=44	=44	=44	=44	=44	=44	=44	=44
!LO:TX:a:t=P:problem=mixed beam	!	!	!	!	!	!	!	!	!	!	!
8E-\L	.	8b-/L	8dd\L	1ryy	.	8a\	Sal-	8cc\	Sal-	8b-\L	8dd\L
8C\	.	8b-/J	8dd\J	.	.	8b-\	-ue	8dd\	-ue	8b-\J	8dd\J
*	*	*	*	*	*	*	*ij	*	*	*	*
8F\	.	4r	4r	.	.	4a\	Sal-	4cc\	Sal-	4r	4r
8FF/J	4	.	.	.	.	.	.	.	.	.	.
.	3	.	.	.	.	.	.	.	.	.	.
8BB-/L	.	4r	4r	.	.	4b-\	-ue	4b-\	-ue	4r	4r
*	*	*	*	*	*	*	*Xij	*	*	*	*
8C/	.	.	.	.	.	.	.	.	.	.	.
8D\	.	16gg\LL	16bb-\LL	.	.	4r	.	4r	.	8dd\L	8ff\L
.	.	16ff\	16aa\	.	.	.	.	.	.	.	.
8BB-/J	.	16ee-\	16gg\	.	.	.	.	.	.	8dd\J	8ff\J
.	.	16dd\JJ	16ff\JJ	.	.	.	.	.	.	.	.
!	!	!LO:LB:g=original	!	!	!	!	!	!LO:LB:g=original	!	!	!
=45	=45	=45	=45	=45	=45	=45	=45	=45	=45	=45	=45
!LO:TX:a:t=P:problem=mixed beam	!	!	!	!LO:TX:a:t=P:problem=brak dwóch taktów	!	!LO:TX:a:t=P:problem=brak dwóch taktów	!	!LO:TX:a:t=P:problem=brak dwóch taktów	!	!	!
8E-\L	.	16ee-\LL	16gg\LL	1ryy	.	1ryy	.	1ryy	.	16ee-\LL	16gg\LL
.	.	16dd\	16ff\	.	.	.	.	.	.	16dd\	16ff\
8C\	.	16cc\	16ee-\	.	.	.	.	.	.	16cc\	16ee-\
.	.	16b-\JJ	16dd\JJ	.	.	.	.	.	.	16b-\JJ	16dd\JJ
8F\	.	16a\LL	16cc\LL	.	.	.	.	.	.	8f/L	16cc\LL
.	.	16cc\	16ee-\	.	.	.	.	.	.	.	16ee-\
8FF/J	.	16b-\	16dd\	.	.	.	.	.	.	8f/J	16dd\
.	.	16a\JJ	16cc\JJ	.	.	.	.	.	.	.	16cc\JJ
!LO:TX:a:t=P:problem=mixed beam	!	!	!	!	!	!	!	!	!	!	!
8B-\L	.	8f/L	8b-\L	.	.	.	.	.	.	8b-\L	8b-\L
8A\	.	8b-\J	8ee-\J	.	.	.	.	.	.	8b-\J	8ee-\J
8B-\	.	8d/L	16dd\LL	.	.	.	.	.	.	4b-\	8dd\L
.	.	.	16cc\	.	.	.	.	.	.	.	.
8BB-/J	4	8d/J	16dd\	.	.	.	.	.	.	.	8dd\J
.	3	.	16ee-\JJ	.	.	.	.	.	.	.	.
=46	=46	=46	=46	=46	=46	=46	=46	=46	=46	=46	=46
4E-\	.	4e-/	4ee-\	1ryy	.	1ryy	.	1ryy	.	4b-\	4ee-\
4r	.	4r	4r	.	.	.	.	.	.	4r	4r
!	!	!	!	!LO:TX:a:t=P:problem=pojedyńcza kreska taktowa	!	!	!	!	!	!	!
2r	.	2r	2r	.	.	.	.	.	.	2r	2r
!LO:PB:g=original	!	!	!LO:LB:g=original	!	!	!	!	!	!	!	!LO:LB:g=original
=47||	=47||	=47||	=47||	=47||	=47||	=47||	=47||	=47||	=47||	=47||	=47||
*M3/4	*	*M3/4	*M3/4	*M3/4	*	*M3/4	*	*M3/4	*	*M3/4	*M3/4
!LO:TX:b:t=Solo Bas.  Gaude Virgo	!	!	!LO:TX:b:t=Bas Solo	!	!	!LO:TX:a:t=Gaude Virgo\n Tacet	!	!LO:TX:a:B:t=Gaude Virgo\n Tacet Bas	!	!LO:TX:b:t=Gaude	!LO:TX:b:t=Gaude Baſso
!	!	!	!LO:TX:a:t=P:problem=zamazane nuty	!	!	!	!	!	!	!LO:N:vis=00	!LO:N:vis=00
4BB-/	.	2.r	8g/L	8.BB-/L	Gau-	2.ryy	.	2.ryy	.	0.r	0.r
.	.	.	8f/	.	.	.	.	.	.	.	.
.	.	.	.	16AA/K	.	.	.	.	.	.	.
4r	.	.	8g/	8.BB-/	.	.	.	.	.	.	.
.	.	.	8a/	.	.	.	.	.	.	.	.
.	.	.	.	16C/K	.	.	.	.	.	.	.
4r	.	.	8b-\	8.D\	.	.	.	.	.	.	.
.	.	.	8cc\J	.	.	.	.	.	.	.	.
.	.	.	.	16E-\Jk	.	.	.	.	.	.	.
=48	=48	=48-	=48	=48	=48	=48	=48	=48	=48	=48	=48
4F\	.	4b-/	4ff\	4F\	.	2.ryy	.	2.ryy	.	.	.
4F\	.	8f/L	4ff\	4F\	-de	.	.	.	.	.	.
.	.	16b-\L	.	.	.	.	.	.	.	.	.
.	.	16a/J	.	.	.	.	.	.	.	.	.
4r	.	8b-\	4r	4r	.	.	.	.	.	.	.
.	.	8cc\J	.	.	.	.	.	.	.	.	.
!	!	!	!	!LO:LB:g=original	!	!	!	!	!	!	!
=49	=49	=49	=49	=49	=49	=49	=49	=49	=49	=49	=49
!	!	!	!LO:N:vis=00	!	!	!	!	!	!	!	!
4BB-/	.	4dd\	0.r	8.BB-/L	gau-	2.ryy	.	2.ryy	.	.	.
.	.	.	.	16AA/K	.	.	.	.	.	.	.
4r	.	4dd\	.	8.BB-/	.	.	.	.	.	.	.
.	.	.	.	16C/K	.	.	.	.	.	.	.
4r	.	4r	.	8.D\	.	.	.	.	.	.	.
.	.	.	.	16E-\Jk	.	.	.	.	.	.	.
=50	=50	=50-	=50	=50	=50	=50	=50	=50	=50	=50	=50
!	!	!LO:N:vis=00	!	!	!	!	!	!	!	!	!
4B-\	6	0.r	.	8.B-\L	.	2.ryy	.	2.ryy	.	.	.
.	.	.	.	16A\K	.	.	.	.	.	.	.
4r	.	.	.	8.G\	.	.	.	.	.	.	.
.	.	.	.	16B-\K	.	.	.	.	.	.	.
4r	.	.	.	8.A\	.	.	.	.	.	.	.
.	.	.	.	16G\Jk	.	.	.	.	.	.	.
=51	=51	=51	=51	=51	=51	=51	=51	=51	=51	=51	=51
!	!	!	!	!	!	!	!	!	!	!LO:N:vis=00	!LO:N:vis=00
4A\	6	.	.	8.A\L	.	2.ryy	.	2.ryy	.	0.r	0.r
.	.	.	.	16G\K	.	.	.	.	.	.	.
4r	.	.	.	8.F\	.	.	.	.	.	.	.
.	.	.	.	16A\K	.	.	.	.	.	.	.
4r	.	.	.	8.G\	.	.	.	.	.	.	.
.	.	.	.	16F\Jk	.	.	.	.	.	.	.
=52	=52	=52	=52	=52	=52	=52	=52	=52	=52	=52	=52
4G\	6	.	.	8.G\L	.	2.ryy	.	2.ryy	.	.	.
.	.	.	.	16F\K	.	.	.	.	.	.	.
4r	.	.	.	8.E-\	.	.	.	.	.	.	.
.	.	.	.	16G\K	.	.	.	.	.	.	.
4r	.	.	.	8.F\	-de	.	.	.	.	.	.
.	.	.	.	16E-\Jk	.	.	.	.	.	.	.
=53	=53	=53	=53-	=53	=53	=53	=53	=53	=53	=53	=53
!	!	!	!	!LO:TX:b:t=P:problem=tekst nieczytelny	!	!	!	!	!	!	!
4.BB-/	.	.	2.r	4.BB-/	(Vir-	2.ryy	.	2.ryy	.	.	.
8C/	.	.	.	8C/	-go	.	.	.	.	.	.
4D/	.	.	.	4D/	glo-	.	.	.	.	.	.
!LO:LB:g=original	!	!	!	!LO:LB:g=original	!	!	!	!	!	!	!
=54	=54	=54-	=54	=54	=54	=54	=54	=54	=54	=54	=54
!	!	!	!LO:TX:a:t=P:problem=brak jednego taktu z źródle	!	!	!	!	!	!	!	!
4E-\	.	2.r	2.ryy	4E-\	-ri-	2.ryy	.	2.ryy	.	.	.
4F\	.	.	.	2F\	-o)-	.	.	.	.	.	.
4FF/	4	.	.	.	.	.	.	.	.	.	.
.	3	.	.	.	.	.	.	.	.	.	.
!	!	!LO:LB:g=original	!	!	!	!	!	!	!	!	!
=55	=55	=55	=55-	=55	=55	=55	=55	=55	=55	=55	=55
!	!	!	!	!	!	!	!	!	!	!LO:N:vis=00	!LO:N:vis=00
4BB-/	.	8b-\L	8b-\L	4BB-/	-sa	2.ryy	.	2.ryy	.	0.r	0.r
.	.	8f/	8a\	.	.	.	.	.	.	.	.
4r	.	8b-\	8b-\	4r	.	.	.	.	.	.	.
.	.	8a/	8cc\	.	.	.	.	.	.	.	.
4r	.	8b-\	8dd\	4r	.	.	.	.	.	.	.
.	.	8cc\J	8ee-\J	.	.	.	.	.	.	.	.
=56	=56	=56	=56	=56-	=56	=56	=56	=56	=56	=56	=56
!	!	!	!	!LO:N:vis=00	!	!	!	!	!	!	!
4F\	.	8dd\L	8ff\L	0.r	.	2.ryy	.	2.ryy	.	.	.
.	.	8ee-\	8gg\	.	.	.	.	.	.	.	.
4r	.	8dd\	8ff\	.	.	.	.	.	.	.	.
.	.	8cc\	8ee-\	.	.	.	.	.	.	.	.
4r	.	8b-\	8dd\	.	.	.	.	.	.	.	.
.	.	8dd\J	8ff\J	.	.	.	.	.	.	.	.
=57	=57	=57	=57	=57	=57	=57	=57	=57	=57	=57	=57
4C/	.	8cc\L	8ee-\L	.	.	2.ryy	.	2.ryy	.	.	.
.	.	8dd\	8ff\	.	.	.	.	.	.	.	.
4r	.	8cc\	8ee-\	.	.	.	.	.	.	.	.
.	.	8b-\	8dd\	.	.	.	.	.	.	.	.
4r	.	8a\	8cc\	.	.	.	.	.	.	.	.
.	.	8cc\J	8ee-\J	.	.	.	.	.	.	.	.
=58	=58	=58	=58	=58	=58	=58	=58	=58	=58	=58	=58
4D\	.	8b-\L	8dd\L	.	.	2.ryy	.	2.ryy	.	.	.
.	.	16cc\L	16ee-\L	.	.	.	.	.	.	.	.
.	.	16b-\JJ	16dd\JJ	.	.	.	.	.	.	.	.
4E-\	6 5	4f/	4cc\	.	.	.	.	.	.	.	.
4FF/	4	4f/	8dd\L	.	.	.	.	.	.	.	.
.	3	.	8cc\J	.	.	.	.	.	.	.	.
=59	=59	=59	=59	=59	=59	=59	=59	=59	=59	=59	=59
!	!	!	!	!	!	!	!	!	!	!LO:N:vis=00	!LO:N:vis=00
4BB-/	.	4b-/	4b-/	.	.	2.ryy	.	2.ryy	.	0.r	0.r
!	!	!	!LO:LB:g=original	!	!	!	!	!	!	!	!
2GG/	.	8g/L	8g/L	.	.	.	.	.	.	.	.
!	!	!LO:TX:b:t=P:problem=# below	!	!	!	!	!	!	!	!	!
.	.	8f#X/	8a/	.	.	.	.	.	.	.	.
.	.	8g/	8b-\	.	.	.	.	.	.	.	.
.	.	8a/J	8cc\J	.	.	.	.	.	.	.	.
=60	=60	=60	=60	=60-	=60	=60	=60	=60	=60	=60	=60
4G\	.	4b-/	4dd\	8.GG/L	gau-	2.ryy	.	2.ryy	.	.	.
.	.	.	.	16FF/K	.	.	.	.	.	.	.
4r	.	4b-/	4dd\	8.GG/	.	.	.	.	.	.	.
.	.	.	.	16AA/K	.	.	.	.	.	.	.
4r	.	4r	4r	8.BB-/	.	.	.	.	.	.	.
.	.	.	.	16C/Jk	.	.	.	.	.	.	.
!	!	!LO:LB:g=original	!	!	!	!	!	!	!	!	!
=61	=61	=61	=61	=61	=61	=61	=61	=61	=61	=61	=61
4D/	.	8d/L	8g/L	4D/	.	2.ryy	.	2.ryy	.	.	.
.	.	8d/	8f#X/	.	.	.	.	.	.	.	.
4D/	.	8g/	8g/	4D/	-de	.	.	.	.	.	.
!	!	!LO:TX:b:t=P:problem=# below	!	!	!	!	!	!	!	!	!
.	.	8f#X/	8a/	.	.	.	.	.	.	.	.
4r	.	8g/	8b-\	4r	.	.	.	.	.	.	.
.	.	8a/J	8cc\J	.	.	.	.	.	.	.	.
!LO:LB:g=original	!	!	!	!	!	!	!	!	!	!	!
=62	=62	=62	=62	=62	=62	=62	=62	=62	=62	=62	=62
4GG/	.	4b-/	4dd\	8.GG/L	gau-	2.ryy	.	2.ryy	.	.	.
.	.	.	.	16FF/K	.	.	.	.	.	.	.
4r	.	4b-/	4dd\	8.GG/	.	.	.	.	.	.	.
.	.	.	.	16AA/K	.	.	.	.	.	.	.
4r	.	4r	4r	8.BB-/	.	.	.	.	.	.	.
.	.	.	.	16C/Jk	.	.	.	.	.	.	.
=63	=63	=63-	=63-	=63	=63	=63	=63	=63	=63	=63	=63
!	!	!LO:TX:a:t=6	!	!	!	!	!	!	!	!	!
!	!	!LO:N:vis=00	!LO:N:vis=00	!	!	!	!	!	!	!LO:N:vis=00	!LO:N:vis=00
4G\	6	0.r	0.r	8.G\L	.	2.ryy	.	2.ryy	.	0.r	0.r
.	.	.	.	16F\K	.	.	.	.	.	.	.
4r	.	.	.	8.E-\	.	.	.	.	.	.	.
.	.	.	.	16G\K	.	.	.	.	.	.	.
4r	.	.	.	8.F\	.	.	.	.	.	.	.
.	.	.	.	16E-\Jk	.	.	.	.	.	.	.
!	!	!	!	!LO:LB:g=original	!	!	!	!	!	!	!
=64	=64	=64	=64	=64	=64	=64	=64	=64	=64	=64	=64
4F\	6	.	.	8.F\L	.	2.ryy	.	2.ryy	.	.	.
.	.	.	.	16E-\K	.	.	.	.	.	.	.
4r	.	.	.	8.D\	.	.	.	.	.	.	.
.	.	.	.	16F\K	.	.	.	.	.	.	.
4r	.	.	.	8.E-\	.	.	.	.	.	.	.
.	.	.	.	16D\Jk	.	.	.	.	.	.	.
=65	=65	=65	=65	=65	=65	=65	=65	=65	=65	=65	=65
4E-\	6	.	.	8.E-\L	.	2.ryy	.	2.ryy	.	.	.
.	.	.	.	16D\K	.	.	.	.	.	.	.
4r	.	.	.	8.C\	.	.	.	.	.	.	.
.	.	.	.	16E-\K	.	.	.	.	.	.	.
4r	.	.	.	8.D\	.	.	.	.	.	.	.
.	.	.	.	16C\Jk	de	.	.	.	.	.	.
=66	=66	=66	=66	=66	=66	=66	=66	=66	=66	=66	=66
4.GG/	.	.	.	4.GG/	-Vir-	2.ryy	.	2.ryy	.	.	.
8AA/	.	.	.	8AA/	-go	.	.	.	.	.	.
4BB-/	.	.	.	4BB-/	glo-	.	.	.	.	.	.
=67	=67	=67-	=67-	=67	=67	=67	=67	=67	=67	=67	=67
!	!	!LO:N:vis=0	!	!	!	!	!	!	!	!LO:N:vis=00	!LO:N:vis=00
4C/	.	1.r	2.r	4C/	-ri-	2.ryy	.	2.ryy	.	0.r	0.r
4D/	.	.	.	2D/	-o-	.	.	.	.	.	.
4DD/	4	.	.	.	.	.	.	.	.	.	.
.	3	.	.	.	.	.	.	.	.	.	.
=68	=68	=68	=68-	=68	=68	=68	=68	=68	=68	=68	=68
4GG/	.	.	8r	4GG/	-ſa	2.ryy	.	2.ryy	.	.	.
.	.	.	8dd\L	.	.	.	.	.	.	.	.
4r	.	.	8a\	4r	.	.	.	.	.	.	.
.	.	.	8dd\	.	.	.	.	.	.	.	.
4r	.	.	8a\	4r	.	.	.	.	.	.	.
.	.	.	8dd\J	.	.	.	.	.	.	.	.
=69	=69	=69	=69	=69	=69	=69	=69	=69	=69	=69	=69
!	!	!	!	!LO:N:vis=00	!	!	!	!	!	!	!
4GG/	.	8r	4b-/	0.r	.	2.ryy	.	2.ryy	.	.	.
.	.	8g/L	.	.	.	.	.	.	.	.	.
4r	.	8d/	4r	.	.	.	.	.	.	.	.
.	.	8g/	.	.	.	.	.	.	.	.	.
4r	.	8d/	4r	.	.	.	.	.	.	.	.
.	.	8g/J	.	.	.	.	.	.	.	.	.
!LO:LB:g=original	!	!	!	!	!	!	!	!	!	!	!
=70	=70	=70	=70	=70	=70	=70	=70	=70	=70	=70	=70
4C/	.	8.b-\L	8.dd\L	.	.	2.ryy	.	2.ryy	.	.	.
.	.	32a/LL	32cc\LL	.	.	.	.	.	.	.	.
.	.	32g/JJJ	32b-\JJJ	.	.	.	.	.	.	.	.
4D/	.	8.a/L	4.a/	.	.	.	.	.	.	.	.
.	.	32g/LL	.	.	.	.	.	.	.	.	.
.	.	32f/JJJ	.	.	.	.	.	.	.	.	.
!	!	!LO:TX:b:t=P:problem=# below	!	!	!	!	!	!	!	!	!
!	!	!LO:N:vis=4.	!	!	!	!	!	!	!	!	!
4DD/	.	8.f#X/	.	.	.	.	.	.	.	.	.
.	.	.	16g/LL	.	.	.	.	.	.	.	.
.	.	16g/	16f/JJ	.	.	.	.	.	.	.	.
!	!	!	!LO:LB:g=original	!	!	!	!	!	!	!	!
=71	=71	=71	=71	=71	=71	=71	=71	=71	=71	=71	=71
!	!	!	!	!	!	!	!	!	!	!LO:N:vis=00	!LO:N:vis=00
4GG/	.	4g/	4g/	.	.	2.ryy	.	2.ryy	.	0.r	0.r
!	!	!LO:TX:a:t=c	!	!	!	!	!	!	!	!	!
4E-\	.	4cc\	4ee-\	.	.	.	.	.	.	.	.
4BB-/	.	4b-\	4dd\	.	.	.	.	.	.	.	.
=72	=72	=72	=72	=72	=72	=72	=72	=72	=72	=72	=72
4E-\	.	4b-/	4dd\	.	.	2.ryy	.	2.ryy	.	.	.
4C\	6 5	2f/	2cc\	.	.	.	.	.	.	.	.
4F\	4	.	.	.	.	.	.	.	.	.	.
.	3	.	.	.	.	.	.	.	.	.	.
=73	=73	=73	=73	=73-	=73	=73	=73	=73	=73	=73	=73
4BB-/	.	4b-/	4b-/	4r	.	2.ryy	.	2.ryy	.	.	.
4B-\	.	4r	4r	4B-\	Su-	.	.	.	.	.	.
!	!	!LO:TX:b:t=Verte Cito	!	!	!	!	!	!	!	!	!
4F\	.	4r	4r	4F\	-per	.	.	.	.	.	.
!	!	!LO:PB:g=original	!	!LO:LB:g=original	!	!	!	!	!	!	!
=74	=74	=74	=74	=74	=74	=74	=74	=74	=74	=74	=74
!	!	!LO:N:vis=00	!LO:N:vis=00	!	!	!	!	!	!	!	!
4BB-/	.	0.r	0.r	8.BB-/L	o-	2.ryy	.	2.ryy	.	.	.
.	.	.	.	16AA/K	.	.	.	.	.	.	.
4r	.	.	.	8.BB-/	.	.	.	.	.	.	.
.	.	.	.	16C/K	.	.	.	.	.	.	.
4r	.	.	.	8.D\	.	.	.	.	.	.	.
.	.	.	.	16E-\Jk	.	.	.	.	.	.	.
=75	=75	=75	=75	=75	=75	=75	=75	=75	=75	=75	=75
!	!	!	!	!	!	!	!	!	!	!LO:N:vis=00	!LO:N:vis=00
4FF/	.	.	.	8.F\L	.	2.ryy	.	2.ryy	.	0.r	0.r
.	.	.	.	16E-\K	.	.	.	.	.	.	.
4r	.	.	.	8.F\	.	.	.	.	.	.	.
.	.	.	.	16G\Jk	.	.	.	.	.	.	.
4r	.	.	.	8A\	.	.	.	.	.	.	.
.	.	.	.	8F\	-mnes	.	.	.	.	.	.
=76	=76	=76	=76	=76	=76	=76	=76	=76	=76	=76	=76
2B-\	.	.	.	2B-\	Spe-	2.ryy	.	2.ryy	.	.	.
4G\	.	.	.	4G\	-cio-	.	.	.	.	.	.
=77	=77	=77	=77	=77	=77	=77	=77	=77	=77	=77	=77
4E-\	.	.	.	(4E-\	.	2.ryy	.	2.ryy	.	.	.
4F\	.	.	.	4F\	.	.	.	.	.	.	.
!	!	!	!LO:TX:b:t=Verte Cito	!	!	!	!	!	!	!	!
4FF/	4	.	.	4FF/)	.	.	.	.	.	.	.
.	3	.	.	.	.	.	.	.	.	.	.
!LO:LB:g=original	!	!	!LO:PB:g=original	!	!	!	!	!	!	!	!
=78	=78	=78-	=78	=78	=78	=78	=78	=78	=78	=78	=78
4BB-/	.	16dd\LL	16b-\LL	4BB-/	-sa	2.ryy	.	2.ryy	.	.	.
.	.	16b-\	16dd\	.	.	.	.	.	.	.	.
.	.	16dd\	16b-\	.	.	.	.	.	.	.	.
.	.	16b-\JJ	16dd\JJ	.	.	.	.	.	.	.	.
4B-\	.	16dd\LL	16b-\LL	4B-\	gau-	.	.	.	.	.	.
.	.	16b-\	16dd\	.	.	.	.	.	.	.	.
.	.	16dd\	16b-\	.	.	.	.	.	.	.	.
.	.	16b-\JJ	16dd\JJ	.	.	.	.	.	.	.	.
4B-\	.	16dd\LL	16b-\LL	4B-\	-de	.	.	.	.	.	.
.	.	16b-\	16dd\	.	.	.	.	.	.	.	.
.	.	16dd\	16b-\	.	.	.	.	.	.	.	.
.	.	16b-\JJ	16dd\JJ	.	.	.	.	.	.	.	.
=79	=79	=79	=79	=79	=79	=79	=79	=79	=79	=79	=79
!	!	!	!	!	!	!	!	!	!	!LO:N:vis=00	!LO:N:vis=00
4r	.	16aa\LL	16ff\LL	4r	.	2.ryy	.	2.ryy	.	0.r	0.r
.	.	16ff\	16aa\	.	.	.	.	.	.	.	.
.	.	16aa\	16ff\	.	.	.	.	.	.	.	.
.	.	16ff\JJ	16aa\JJ	.	.	.	.	.	.	.	.
*	*	*	*	*	*ij	*	*	*	*	*	*
4F\	.	16aa\LL	16ff\LL	4F\	gau-	.	.	.	.	.	.
.	.	16ff\	16aa\	.	.	.	.	.	.	.	.
.	.	16aa\	16ff\	.	.	.	.	.	.	.	.
.	.	16ff\JJ	16aa\JJ	.	.	.	.	.	.	.	.
4F\	.	16aa\LL	16ff\LL	4F\	-de	.	.	.	.	.	.
*	*	*	*	*	*Xij	*	*	*	*	*	*
.	.	16ff\	16aa\	.	.	.	.	.	.	.	.
.	.	16aa\	16ff\	.	.	.	.	.	.	.	.
.	.	16ff\JJ	16aa\JJ	.	.	.	.	.	.	.	.
!	!	!	!	!LO:LB:g=original	!	!	!	!	!	!	!
=80	=80	=80	=80	=80	=80	=80	=80	=80	=80	=80	=80
4F\	.	4ff\	4ff\	16F\LL	gau-	2.ryy	.	2.ryy	.	.	.
!	!	!	!	!LO:TX:a:t=P:global:problem=jakiś znaczek nad nutą, przyjęto mordent	!	!	!	!	!	!	!
.	.	.	.	16E-M\	.	.	.	.	.	.	.
.	.	.	.	16F\	.	.	.	.	.	.	.
.	.	.	.	16G\JJ	.	.	.	.	.	.	.
4r	.	4r	4r	8F\L	.	.	.	.	.	.	.
.	.	.	.	8G\	.	.	.	.	.	.	.
4r	.	4r	4r	8F\	.	.	.	.	.	.	.
.	.	.	.	8G\J	.	.	.	.	.	.	.
=81	=81	=81	=81-	=81	=81	=81	=81	=81	=81	=81	=81
!	!	!LO:N:vis=0	!LO:N:vis=0	!	!	!	!	!	!	!	!
4GG/	.	1.r	1.r	16G\LL	.	2.ryy	.	2.ryy	.	.	.
.	.	.	.	16F\	.	.	.	.	.	.	.
.	.	.	.	16G\	.	.	.	.	.	.	.
.	.	.	.	16A\JJ	.	.	.	.	.	.	.
4r	.	.	.	8.G\L	.	.	.	.	.	.	.
.	.	.	.	16B-\K	.	.	.	.	.	.	.
!	!	!	!	!	!LO:MO:mod=-de	!	!	!	!	!	!
4r	.	.	.	8.A\	.	.	.	.	.	.	.
.	.	.	.	16c\Jk	.	.	.	.	.	.	.
=82	=82	=82	=82	=82	=82	=82	=82	=82	=82	=82	=82
4.BB-/	.	.	.	(4.BB-/	-gau-	2.ryy	.	2.ryy	.	.	.
8C/	.	.	.	8C/)	.	.	.	.	.	.	.
4D/	.	.	.	4D/	-de	.	.	.	.	.	.
=83	=83	=83-	=83-	=83	=83	=83	=83	=83	=83	=83	=83
!	!	!	!	!	!	!	!	!	!	!LO:N:vis=00	!LO:N:vis=00
4E-\	.	2.r	2.r	(4E-\	gau-	2.ryy	.	2.ryy	.	0.r	0.r
4F\	.	.	.	4F\	.	.	.	.	.	.	.
4FF/	4	.	.	4FF/)	.	.	.	.	.	.	.
.	3	.	.	.	.	.	.	.	.	.	.
=84	=84	=84-	=84-	=84	=84	=84	=84	=84	=84	=84	=84
4BB-/	.	16dd\LL	16ff\LL	4BB-/	-de	2.ryy	.	2.ryy	.	.	.
!	!	!LO:TX:a:t=P:problem=# above	!LO:TX:a:t=P:problem=# above	!	!	!	!	!	!	!	!
.	.	16cc#X\	16ee#X\	.	.	.	.	.	.	.	.
.	.	16dd\	16ff\	.	.	.	.	.	.	.	.
!	!	!LO:TX:a:t=P:problem=# above	!	!	!	!	!	!	!	!	!
.	.	16ee#X\JJ	16gg\JJ	.	.	.	.	.	.	.	.
4r	.	8dd\L	8ff\L	4r	.	.	.	.	.	.	.
.	.	8ff\	8aa\	.	.	.	.	.	.	.	.
!	!	!LO:TX:a:t=P:problem=# above	!	!	!	!	!	!	!	!	!
4r	.	8ee#X\	8gg\	4r	.	.	.	.	.	.	.
.	.	8gg\J	8bb-\J	.	.	.	.	.	.	.	.
!	!	!LO:LB:g=original	!	!	!	!	!	!	!	!	!
=85	=85	=85	=85	=85-	=85	=85	=85	=85	=85	=85	=85
!	!	!	!	!LO:N:vis=00	!	!	!	!	!	!	!
4AA/	.	16ff\LL	16aa\LL	0.r	.	2.ryy	.	2.ryy	.	.	.
!	!	!LO:TX:a:t=P:problem=# above	!	!	!	!	!	!	!	!	!
.	.	16ee#X\	16gg\	.	.	.	.	.	.	.	.
.	.	16ff\	16aa\	.	.	.	.	.	.	.	.
.	.	16gg\JJ	16ccc\JJ	.	.	.	.	.	.	.	.
!	!	!	!LO:LB:g=original	!	!	!	!	!	!	!	!
4r	.	8ff\L	8aa\L	.	.	.	.	.	.	.	.
.	.	8aa\	8ccc\	.	.	.	.	.	.	.	.
4r	.	8gg\	8bb-\	.	.	.	.	.	.	.	.
.	.	8bb-\J	8ddd\J	.	.	.	.	.	.	.	.
!LO:LB:g=original	!	!	!	!	!	!	!	!	!	!	!
=86	=86	=86	=86	=86	=86	=86	=86	=86	=86	=86	=86
4BB-/	.	4f/	16b-\LL	.	.	2.ryy	.	2.ryy	.	.	.
.	.	.	16a\	.	.	.	.	.	.	.	.
.	.	.	16b-\	.	.	.	.	.	.	.	.
.	.	.	16cc\JJ	.	.	.	.	.	.	.	.
4r	.	8dd\L	8b-\L	.	.	.	.	.	.	.	.
.	.	8b-\	8dd\	.	.	.	.	.	.	.	.
4r	.	8ee-\	8cc\	.	.	.	.	.	.	.	.
.	.	8cc\J	8ee-\J	.	.	.	.	.	.	.	.
=87	=87	=87	=87	=87	=87	=87	=87	=87	=87	=87	=87
!	!	!	!	!	!	!	!	!	!	!LO:N:vis=0	!LO:N:vis=0
4C/	.	16b-\LL	16dd\LL	.	.	2.ryy	.	2.ryy	.	1.r	1.r
.	.	16a\	16cc\	.	.	.	.	.	.	.	.
.	.	16b-\	16dd\	.	.	.	.	.	.	.	.
.	.	16cc\JJ	16ee-\JJ	.	.	.	.	.	.	.	.
4r	.	8b-\L	8dd\L	.	.	.	.	.	.	.	.
.	.	8dd\	8ff\	.	.	.	.	.	.	.	.
4r	.	8cc\	8ee-\	.	.	.	.	.	.	.	.
.	.	8ee-\J	8gg\J	.	.	.	.	.	.	.	.
=88	=88	=88	=88	=88	=88	=88	=88	=88	=88	=88	=88
4E-\	.	8cc\L	8ee-\L	.	.	2.ryy	.	2.ryy	.	.	.
.	.	8b-\J	8dd\J	.	.	.	.	.	.	.	.
4C/	.	2f/	2cc\	.	.	.	.	.	.	.	.
4F\	4	.	.	.	.	.	.	.	.	.	.
.	3	.	.	.	.	.	.	.	.	.	.
=89	=89	=89	=89	=89-	=89	=89	=89	=89	=89	=89	=89
4BB-/	.	4b-/	4b-/	2.r	.	2.ryy	.	2.ryy	.	2.r	2.r
4r	.	4r	4r	.	.	.	.	.	.	.	.
!LO:TX:a:t=P:problem=pojedyńcza kreska taktowa	!	!LO:TX:a:t=P:problem=pojedyńcza kreska taktowa	!	!	!	!LO:TX:a:t=P:problem=pojedyńcza kreska taktowa	!	!	!	!LO:TX:a:t=P:problem=pojedyńcza kreska taktowa	!LO:TX:a:t=P:problem=pojedyńcza kreska taktowa
4r	.	4r	4r	.	.	.	.	.	.	.	.
!LO:LB:g=original	!	!LO:LB:g=original	!	!LO:LB:g=original	!	!LO:LB:g=original	!	!	!	!	!
=90||	=90||	=90||	=90||	=90||	=90||	=90||	=90||	=90||	=90||	=90||	=90||
*k[b-e-]	*	*k[b-e-]	*k[b-e-]	*k[b-e-]	*	*k[b-e-]	*	*k[b-e-]	*	*k[b-e-]	*k[b-e-]
*M2/2	*	*M2/2	*M2/2	*M2/2	*	*M2/2	*	*M2/2	*	*M2/2	*M2/2
*met(c|)	*	*met(c|)	*met(c|)	*met(c|)	*	*met(c)	*	*met(c|)	*	*met(c|)	*met(c|)
!LO:TX:b:t=Solo	!	!	!	!	!	!	!	!	!	!	!
8BB-/L	.	0r	0r	1r	.	4r	.	4r	.	0r	0r
8C/	.	.	.	.	.	.	.	.	.	.	.
8D\	.	.	.	.	.	8r	.	8r	.	.	.
8BB-/J	.	.	.	.	.	8b-\	Va-	8b-\	Va-	.	.
8B-\L	.	.	.	.	.	8dd\	-le	8ff\	-le	.	.
8A\	.	.	.	.	.	8dd\	o	8ff\	o	.	.
8G\	.	.	.	.	.	8dd\	va-	8ff\	ua-	.	.
8B-\J	.	.	.	.	.	16dd\	-de	16ff\	-de	.	.
.	.	.	.	.	.	16dd\	de	16ff\	de	.	.
=91	=91	=91	=91	=91	=91	=91	=91	=91	=91	=91	=91
!LO:TX:a:t=P:problem=mixed beam	!	!	!	!	!	!	!	!	!	!	!
8F\L	.	.	.	4r	.	8b-\	co-	8dd\	co-	.	.
8BB-/	.	.	.	.	.	8b-\	-ra	8b-\	-ra	.	.
8B-\	.	.	.	8B-\	Et	4r	.	4r	.	.	.
8B-\J	.	.	.	8B-\	pro	.	.	.	.	.	.
!LO:LB:g=original	!	!	!	!	!	!	!	!	!	!	!
16A\LL	6	.	.	16A\LL	no-	2r	.	2r	.	.	.
16G\	.	.	.	16G\	.	.	.	.	.	.	.
16F\	.	.	.	16F\	.	.	.	.	.	.	.
16G\JJ	.	.	.	16G\JJ	.	.	.	.	.	.	.
16A\LL	6	.	.	16A\LL	.	.	.	.	.	.	.
16F\	.	.	.	16G\	.	.	.	.	.	.	.
16G\	.	.	.	16F\	.	.	.	.	.	.	.
16A\JJ	.	.	.	16G\JJ	.	.	.	.	.	.	.
!	!	!	!	!	!	!	!	!LO:LB:g=original	!	!	!
=92	=92	=92-	=92-	=92	=92	=92	=92	=92	=92	=92-	=92-
!LO:TX:a:t=P:problem=mixed beam	!	!	!	!	!	!	!	!	!	!	!
8B-\L	.	4r	4r	8B-\	.	0r	.	0r	.	4r	4r
8BB-/J	.	.	.	8B-\	-bis	.	.	.	.	.	.
!LO:TX:a:t=P:problem=mixed beam	!	!	!	!	!	!	!	!	!	!	!
8B-\L	.	8r	8r	4r	.	.	.	.	.	8r	8r
!	!	!LO:TX:b:t=allegro	!	!	!	!	!	!	!	!	!
16BB-/L	.	8b-/	8b-/	.	.	.	.	.	.	8f/	8b-\
16C/JJ	.	.	.	.	.	.	.	.	.	.	.
!	!	!	!LO:LB:g=original	!	!	!	!	!	!	!	!
8BB-/L	.	8dd\L	8ff\L	2r	.	.	.	.	.	8dd\L	8ff\L
8C/	.	8dd\	8ff\	.	.	.	.	.	.	8dd\J	8ff\J
8D\	.	8dd\	8ff\	.	.	.	.	.	.	8dd\L	8ff\L
8BB-/J	.	16dd\L	16ff\L	.	.	.	.	.	.	16dd\L	16ff\L
.	.	16dd\JJ	16ff\JJ	.	.	.	.	.	.	16dd\JJ	16ff\JJ
=93	=93	=93	=93	=93-	=93	=93	=93	=93	=93	=93	=93
!LO:TX:a:t=P:problem=mixed beam	!	!	!	!	!	!	!	!	!	!	!
8BB-/L	.	8b-\L	8dd\L	0r	.	.	.	.	.	8b-\L	8dd\L
8B-\	.	8b-\J	8b-\J	.	.	.	.	.	.	8f\J	8b-\J
8A\	.	8r	8r	.	.	.	.	.	.	8r	8r
!	!	!	!	!	!	!	!	!	!	!LO:N:vis=4	!
8F\J	.	8dd\	8ff\	.	.	.	.	.	.	8dd\	8ff\
!LO:TX:a:t=P:problem=mixed beam	!	!	!	!	!	!	!	!	!	!	!
8E-\L	.	16ee-\LL	16gg\LL	.	.	.	.	.	.	16ee-\LL	16gg\LL
.	.	16dd\	16ff\	.	.	.	.	.	.	16dd\	16ff\
8C\	.	16cc\	16ee-\	.	.	.	.	.	.	16cc\	16ee-\
.	.	16b-\JJ	16dd\JJ	.	.	.	.	.	.	16b-\JJ	16dd\JJ
8F\	.	4f/	8cc\L	.	.	.	.	.	.	8f/L	8cc\L
8FF/J	4	.	8cc\J	.	.	.	.	.	.	8f/J	8cc\J
.	3	.	.	.	.	.	.	.	.	.	.
=94	=94	=94	=94	=94	=94	=94-	=94	=94-	=94	=94	=94
8BB-/L	.	4b-/	4b-/	.	.	4r	.	4r	.	4d/	4b-\
8C/	.	.	.	.	.	.	.	.	.	.	.
8D\	.	4r	4r	.	.	8dd\	et	8ff\	et	4r	4r
8BB-/J	.	.	.	.	.	8dd\	pro-	8ff\	pro-	.	.
!LO:TX:a:t=P:problem=mixed beam	!	!	!	!	!	!	!	!	!	!	!
8E-\L	.	2r	2r	.	.	16cc\LL	-no-	16ee-\LL	-no-	2r	2r
.	.	.	.	.	.	16b-\	.	16dd\	.	.	.
8C\	.	.	.	.	.	16a\	.	16cc\	.	.	.
!	!	!	!	!	!	!LO:TX:b:t=Verte Cito	!	!	!	!	!
.	.	.	.	.	.	16b-\JJ	.	16dd\JJ	.	.	.
!	!	!	!	!	!	!LO:PB:g=original	!	!	!	!	!
8F\	.	.	.	.	.	(16cc\LL	.	(16ee-\LL	.	.	.
.	.	.	.	.	.	16ee-\JJ)	.	16gg\JJ)	.	.	.
8FF/J	4	.	.	.	.	(16dd\	.	(16ff\	.	.	.
.	3	.	.	.	.	16cc\)	-bis	16ee-\)	-bis	.	.
!LO:LB:g=original	!	!	!	!	!	!	!	!	!	!	!
=95	=95	=95	=95	=95-	=95	=95	=95	=95	=95	=95	=95
!LO:TX:a:t=P:problem=mixed beam	!	!	!	!	!	!	!	!	!	!	!
!LO:TX:b:t=Tutti	!	!	!	!	!	!	!	!	!	!	!
8BB-/L	.	8r	8r	8r	.	8b-\	Chryſ-	8dd\	Chry-	8r	8r
8B-\	.	8dd\L	8ff\L	8B-\	e-	8b-\	-tu(m)	8dd\	-tum	8dd\L	8ff\L
8A\	6	8dd\	8ff\	8A\	-xo-	4dd\	e-	4ff\	ex-	8dd\	8ff\
8F\J	.	8dd\J	8ff\J	8F\	-ra	.	.	.	.	8dd\J	8ff\J
8r	.	8r	8r	8r	.	16dd\LL	-xo-	16ff\LL	.	8r	8r
.	.	.	.	.	.	16ee-\	.	16gg\	.	.	.
8B-\L	.	8dd\L	8ff\L	8B-\	e-	16dd\	.	16ff\	.	8dd\L	8ff\L
.	.	.	.	.	.	16ee-\JJ	.	16gg\JJ	.	.	.
8A\	6	8dd\	8ff\	8A\	-xo-	16dd\LL	.	16ff\LL	.	8dd\	8ff\
.	.	.	.	.	.	16ee-\	.	16gg\	.	.	.
8F\J	.	8dd\J	8ff\J	8F\	-ra	16dd\	-ra	16ff\	.	8dd\J	8ff\J
.	.	.	.	.	.	16ee-\JJ	.	16gg\JJ	.	.	.
!	!	!	!LO:LB:g=original	!LO:LB:g=original	!	!	!	!	!	!	!
=96	=96	=96	=96	=96	=96	=96	=96	=96	=96	=96	=96
8BB-/L	.	8dd\L	8ff\L	(8BB-/L	Chry-	8r	.	8r	.	8dd\L	8ff\L
!	!	!	!	!	!	!	!	!LO:PB:g=original	!	!	!
8C/	.	8cc\	8ee-\	8C/J)	.	8b-\	e-	8dd\	-ex-	8cc\	8ee-\
8D\	.	8b-\	8dd\	(8D\L	-ſtu(m)	4a\	-xo-	4cc\	-e-	8b-\	8dd\
8E-\J	.	8a\J	8cc\J	8E-\J)	.	.	.	.	.	8f\J	8cc\J
!	!	!LO:LB:g=original	!	!	!	!	!	!	!	!LO:LB:g=original	!LO:LB:g=original
!LO:TX:a:t=P:problem=mixed beam	!	!	!	!LO:TX:a:t=P:problem=mixed beam	!	!	!	!	!	!	!
8F\L	.	8b-\L	8dd\L	8F\L	e-	8g\	-ra	8b-\	-ra	8b-\L	8dd\L
8E-\	.	8cc\J	8ee-\J	8E-\	.	8b-\	e-	8dd\	e-	8cc\J	8ee-\J
8F\	.	4f/	4cc\	8F\	-xo-	4a\	-xo-	4cc\	-xo-	4f/	4cc\
8FF/J	4	.	.	8FF/J	.	.	.	.	.	.	.
.	3	.	.	.	.	.	.	.	.	.	.
=97-	=97	=97	=97	=97	=97	=97	=97	=97	=97	=97	=97
8BB-/L	.	8b-\L	8b-\L	4BB-/	-ra	4b-\	-ra	4b-\	-ra	4d/	4b-\
!LO:TX:b:t=Solo	!	!	!	!	!	!	!	!	!	!	!
16GG/L	.	16g/L	16g/L	.	.	.	.	.	.	.	.
16FF/JJ	.	16f#X/JJ	16a/JJ	.	.	.	.	.	.	.	.
!LO:TX:a:t=P:problem=mixed beam	!	!	!	!	!	!	!	!	!	!	!
8GG/L	.	8g/L	8b-\L	4r	.	4r	.	4r	.	8d/L	8d/L
8G\J	.	8b-\J	8g/J	.	.	.	.	.	.	8d/J	8d/J
8GG/L	.	8b-/L	8dd\L	2r	.	2r	.	2r	.	8d/L	8d/L
8AA/	.	8b-/	8dd\	.	.	.	.	.	.	8d/	8d/
8BB-/	.	8b-/	8dd\	.	.	.	.	.	.	8d/	8d/
8GG/J	.	8b-/J	8dd\J	.	.	.	.	.	.	8d/J	8d/J
=98	=98	=98	=98	=98	=98	=98-	=98	=98	=98	=98	=98
!LO:TX:a:t=P:problem=mixed beam	!	!	!	!	!	!	!	!	!	!	!
8GG/L	.	8g/L	8b-\L	0r	.	1r	.	1r	.	4d/	8d/L
8G\	.	8g/J	8g/J	.	.	.	.	.	.	.	8d/J
8F\	.	8r	8r	.	.	.	.	.	.	8r	8r
!	!	!	!	!	!	!	!	!	!	!LO:TX:a:t=P:problem=mixed beam	!
8D\J	.	8b-/	8dd\	.	.	.	.	.	.	8b-\L	8dd\L
8C/L	.	16cc\LL	16ee-\LL	.	.	.	.	.	.	8f/	8cc\
.	.	16b-\	16dd\	.	.	.	.	.	.	.	.
8AA/	.	16a\	16cc\	.	.	.	.	.	.	8f/J	8b-\J
.	.	16g\JJ	16b-\JJ	.	.	.	.	.	.	.	.
8D\	.	8g/L	8.a/L	.	.	.	.	.	.	4d/	4d/
!	!	!LO:TX:b:t=P:problem=# below	!	!	!	!	!	!	!	!	!
8DD/J	.	8f#X/J	.	.	.	.	.	.	.	.	.
.	.	.	16g/Jk	.	.	.	.	.	.	.	.
!LO:LB:g=original	!	!	!	!	!	!LO:LB:g=original	!	!	!	!	!
=99	=99	=99	=99	=99	=99	=99	=99	=99-	=99	=99	=99
8GG/L	.	4g/	4g/	.	.	4r	.	4r	.	4d/	4d/
8AA/	.	.	.	.	.	.	.	.	.	.	.
8BB-/	.	4r	4r	.	.	8r	.	8r	.	4r	4r
8GG/J	.	.	.	.	.	8g/	Va-	8g/	Va-	.	.
8G\L	.	2r	2r	.	.	8b-\	-le	8dd\	-le	2r	2r
8F\	.	.	.	.	.	8b-\	o	8dd\	o	.	.
8E-\	.	.	.	.	.	8b-\	ual-	8dd\	ual-	.	.
8G\J	.	.	.	.	.	16b-\	-de	16dd\	-de	.	.
.	.	.	.	.	.	16b-\	de-	16dd\	de-	.	.
=100	=100	=100	=100	=100-	=100	=100	=100	=100	=100	=100-	=100-
!LO:TX:a:t=P:problem=mixed beam	!	!	!	!	!	!	!	!	!	!	!
8D\L	.	1r	1r	4r	.	8g/	-co-	8b-\	-co-	00r	00r
8GG\	.	.	.	.	.	8g/	-ra	8g\	-ra	.	.
8G/	.	.	.	8G\	Et	4r	.	4r	.	.	.
8G/J	.	.	.	8G\	pro	.	.	.	.	.	.
16F\LL	6	.	.	16F\LL	no-	2r	.	2r	.	.	.
16E-\	.	.	.	16E-M\	.	.	.	.	.	.	.
16D\	.	.	.	16D\	.	.	.	.	.	.	.
16E-\JJ	.	.	.	16E-M\JJ	.	.	.	.	.	.	.
16F\LL	.	.	.	16F\LL	.	.	.	.	.	.	.
16D\	.	.	.	16D\	.	.	.	.	.	.	.
16E-\	.	.	.	16E-M\	.	.	.	.	.	.	.
16F\JJ	.	.	.	16F\JJ	.	.	.	.	.	.	.
!	!	!	!LO:LB:g=original	!	!	!	!	!LO:LB:g=original	!	!	!
=101	=101	=101-	=101	=101	=101	=101-	=101	=101	=101	=101	=101
!LO:TX:a:t=P:problem=mixed beam	!	!	!	!	!	!	!	!	!	!	!
8G\L	.	4r	4r	8G\	.	0r	.	0r	.	.	.
8GG/J	.	.	.	8G\	-bis	.	.	.	.	.	.
!LO:TX:a:t=P:problem=mixed beam	!	!	!	!	!	!	!	!	!	!	!
8G\L	.	8r	8r	4r	.	.	.	.	.	.	.
16GG/L	.	8g/	8g/	.	.	.	.	.	.	.	.
16AA/JJ	.	.	.	.	.	.	.	.	.	.	.
8GG/L	.	8b-/L	8dd\L	2r	.	.	.	.	.	.	.
8AA/	.	8b-/	8dd\	.	.	.	.	.	.	.	.
8BB-/	.	8b-/	8dd\	.	.	.	.	.	.	.	.
8GG/J	.	16b-/L	16dd\L	.	.	.	.	.	.	.	.
.	.	16b-/JJ	16dd\JJ	.	.	.	.	.	.	.	.
!	!	!LO:LB:g=original	!	!LO:PB:g=original	!	!	!	!	!	!	!
=102	=102	=102	=102	=102	=102	=102	=102	=102	=102	=102	=102
!LO:TX:a:t=P:problem=mixed beam	!	!	!	!	!	!	!	!	!	!	!
8GG/L	.	8g/L	8b-\L	0r	.	.	.	.	.	.	.
8G\	.	8g/J	8g/J	.	.	.	.	.	.	.	.
8F\	.	8r	8r	.	.	.	.	.	.	.	.
!LO:TX:b:t=Verte Cito	!	!	!	!	!	!	!	!	!	!	!
8D\J	.	8b-/	8dd\	.	.	.	.	.	.	.	.
!LO:PB:g=original	!	!	!	!	!	!	!	!	!	!	!
8C/L	.	16cc\LL	16ee-\LL	.	.	.	.	.	.	.	.
.	.	16b-\	16dd\	.	.	.	.	.	.	.	.
8AA/	.	16a\	16cc\	.	.	.	.	.	.	.	.
.	.	16g\JJ	16b-\JJ	.	.	.	.	.	.	.	.
8D\	.	8.g/L	8.a/L	.	.	.	.	.	.	.	.
8DD/J	.	.	.	.	.	.	.	.	.	.	.
!	!	!LO:TX:b:t=P:problem=# below	!	!	!	!	!	!	!	!	!
.	.	16f#X/Jk	16g/Jk	.	.	.	.	.	.	.	.
=103	=103	=103	=103	=103	=103	=103-	=103	=103-	=103	=103	=103
8GG/L	.	4g/	4g/	.	.	4r	.	4r	.	.	.
8AA/	.	.	.	.	.	.	.	.	.	.	.
8BB-/	.	4r	4r	.	.	8b-\	ex	8dd\	ex	.	.
8GG/J	.	.	.	.	.	8b-\	pro	8dd\	pro	.	.
8C/L	.	2r	2r	.	.	16a\LL	no-	16cc\LL	no-	.	.
.	.	.	.	.	.	16g\	.	16b-\	.	.	.
8AA/	.	.	.	.	.	16f\	.	16a\	.	.	.
.	.	.	.	.	.	16g\JJ	.	16b-\JJ	.	.	.
8D\	.	.	.	.	.	(16a\LL	.	(16cc\LL	.	.	.
.	.	.	.	.	.	16cc\JJ)	.	16ee-\JJ)	.	.	.
8DD/J	.	.	.	.	.	(16b-\	.	(16dd\	.	.	.
.	.	.	.	.	.	16a\)	-bis	16cc\)	-bis	.	.
!	!	!	!	!	!	!LO:LB:g=original	!	!	!	!	!
=104	=104	=104	=104	=104-	=104	=104	=104	=104	=104	=104-	=104-
4GG/	.	1r	1r	4r	.	8g\	Chrÿſ-	8b-\	Chriſ-	1r	1r
.	.	.	.	.	.	8g\	-stu(m)	8b-\	-tu(m)	.	.
8r	.	.	.	8r	.	8r	.	8r	.	.	.
8B-\	.	.	.	8B-\	e-	8dd\	e-	8ff\	e-	.	.
8A\L	6	.	.	8A\L	-xo-	8b-\L	-xo-	8dd\L	-xo-	.	.
8F\	.	.	.	8F\	.	8a\	.	8cc\	.	.	.
8G\	.	.	.	8G\	.	8b-\	.	8dd\	.	.	.
8A\J	.	.	.	8A\J	.	8g\J	.	8b-\J	.	.	.
=105	=105	=105-	=105-	=105	=105	=105	=105	=105	=105	=105-	=105-
!LO:TX:a:t=P:problem=mixed beam	!	!	!	!	!	!	!	!	!	!	!
8B-\L	.	4r	4r	8B-\	.	8b-\	.	8ff\	.	4r	4r
8BB-/J	.	.	.	8B-\	-ro	8b-\	-ra	8ff\	-ra	.	.
8BB-/L	.	16dd\LL	16ff\LL	4r	.	4r	.	4r	.	8dd\L	8ff\L
.	.	16ee-\	16gg\	.	.	.	.	.	.	.	.
8C/J	.	16dd\	16ff\	.	.	.	.	.	.	8cc\J	8ee-\J
.	.	16cc\JJ	16ee-\JJ	.	.	.	.	.	.	.	.
!LO:TX:a:t=P:problem=zalana karta, nie widać nut	!	!	!	!	!	!	!	!	!	!	!
2ryy	.	16b-\LL	16dd\LL	2r	.	2r	.	2r	.	16b-\LL	16dd\LL
.	.	16dd\	16ff\	.	.	.	.	.	.	16dd\	16ff\
.	.	16cc\	16ee-\	.	.	.	.	.	.	16cc\	16ee-\
.	.	16b-\JJ	16dd\JJ	.	.	.	.	.	.	16b-\JJ	16dd\JJ
.	.	16a\LL	16cc\LL	.	.	.	.	.	.	8f/L	8cc\L
.	.	16cc\	16ee-\	.	.	.	.	.	.	.	.
.	.	16b-\	16dd\	.	.	.	.	.	.	8f/J	8cc\J
.	.	16f\JJ	16cc\JJ	.	.	.	.	.	.	.	.
!	!	!	!LO:LB:g=original	!	!	!	!	!LO:LB:g=original	!	!	!
=106	=106	=106	=106	=106	=106	=106	=106	=106	=106	=106	=106
2ryy	.	4b-/	4b-/	4r	.	4r	.	4r	.	4d/	4b-\
.	.	4r	4r	8r	.	8r	.	8r	.	4r	4r
.	.	.	.	8B-\	e-	8dd\	e-	8ff\	e-	.	.
8A\L	6	2r	2r	8A\L	-xo-	8b-\L	-xo-	8dd\L	-xo-	2r	2r
8F\	.	.	.	8F\	.	8a\	.	8cc\	.	.	.
8G\	.	.	.	8G\	.	8b-\	.	8dd\	.	.	.
8A\J	.	.	.	8A\J	.	8g\J	.	8b-\J	.	.	.
=107	=107	=107	=107	=107	=107	=107	=107	=107	=107	=107	=107
8B-\L	.	4r	4r	8B-\	.	8dd\	.	8ff\	.	4r	4r
8B-\J	.	.	.	8B-\	-ra	8dd\	-ra	8ff\	-ra	.	.
!	!	!LO:LB:g=original	!	!	!	!	!	!	!	!	!
8BB-/L	.	16dd\LL	16ff\LL	4r	.	4r	.	4r	.	8dd\L	8ff\L
.	.	16ee-\	16gg\	.	.	.	.	.	.	.	.
8C/	.	16dd\	16ff\	.	.	.	.	.	.	8cc\J	8ee-\J
.	.	16cc\JJ	16ee-\JJ	.	.	.	.	.	.	.	.
8D\	.	16b-\LL	16dd\LL	2r	.	2r	.	2r	.	16b-\LL	16dd\LL
.	.	16dd\	16ff\	.	.	.	.	.	.	16dd\	16ff\
8E-\J	.	16cc\	16ee-\	.	.	.	.	.	.	16cc\	16ee-\
.	.	16b-\JJ	16dd\JJ	.	.	.	.	.	.	16b-\JJ	16dd\JJ
!LO:TX:a:t=P:problem=mixed beam	!	!	!	!	!	!	!	!	!	!	!
8F\L	.	16a\LL	16cc\LL	.	.	.	.	.	.	8f/L	8cc\L
.	.	16cc\	16ee-\	.	.	.	.	.	.	.	.
8FF/J	.	16b-\	16dd\	.	.	.	.	.	.	8f/J	8cc\J
.	.	16f\JJ	16cc\JJ	.	.	.	.	.	.	.	.
!	!	!	!	!	!	!LO:LB:g=original	!	!	!	!LO:LB:g=original	!LO:LB:g=original
=108	=108	=108	=108	=108	=108	=108	=108	=108	=108	=108	=108
!LO:TX:a:t=P:problem=mixed beam	!	!	!LO:TX:a:t=P:problem=mixed beam	!	!	!	!	!	!	!	!
8BB-/L	.	8b-\L	8b-/L	8r	.	8r	.	8r	.	8d/L	8b-\L
8B-\J	.	8ff\J	8bb-\J	8B-\	e-	8b-\	e-	8dd\	e-	8d/J	8b-\J
!	!	!	!	!LO:LB:g=original	!	!	!	!	!	!	!
4F\	.	4ff\	4aa\	4F\	-xo-	4a\	-xo-	4cc\	-xo-	4d/	4f/
8A\L	.	4gg\	4bb-\	8B-\	-ra	8b-\	-ra	8dd\	-ra	8B-/L	8d/L
8B-\J	.	.	.	8B-\	e-	8b-\	e-	8dd\	e-	8B-/	8d/
!LO:TX:a:t=P:problem=mixed beam	!	!	!	!	!	!	!	!	!	!	!
8F\L	.	4ff\	4aa\	4F\	-xo-	4a\	-xo-	4cc\	-xo-	8B-/	8d/
8FF/J	4	.	.	.	.	.	.	.	.	8B-/J	8d/J
.	3	.	.	.	.	.	.	.	.	.	.
=109	=109	=109	=109	=109	=109	=109	=109	=109	=109	=109	=109
4BB-/	.	4b-\	4bb-\	4BB-/	-ra	4b-\	-ra	4b-\	-ra	4B-/	4d/
4r	.	4r	4r	4r	.	4r	.	4r	.	4r	4r
2r	.	2r	2r	2r	.	2r	.	2r	.	2r	2r
!	!	!	!	!LO:TX:b:t=Laus Deo Ineternu(m)\nFinis Laudabile totu(s)\nFinis Coronat opus	!	!	!	!LO:TX:b:t=S. I. R.	!	!	!
==	==	==	==	==	==	==	==	==	==	==	==
*-	*-	*-	*-	*-	*-	*-	*-	*-	*-	*-	*-
!!!system-decoration: [g1][g2][g3]s8
!!!ENC: Marta Lawrence
!!!END: 2020-10-22
!!!ENC: Berenika Jozajtis
!!!END: 2020-04-22
!!!YEC: Copyright 2022 Narodowy Instytut Fryderyka Chopina (https://polishscores.org)
!!!YEM: License CC-BY-4.0 (https://creativecommons.org/licenses/by/4.0)
